{"compressionlevel":-1,"height":42,"width":64,"infinite":false,"orientation":"orthogonal","renderorder":"right-down","tiledversion":"1.10.2","version":"1.10","type":"map","tilewidth":16,"tileheight":16,"nextlayerid":9,"nextobjectid":52,"properties":[{"name":"collision","type":"string","value":"any non-empty tile in layer 'collision' blocks movement"},{"name":"generator","type":"string","value":"scripts/build-town-map.mjs"}],"tilesets":[{"firstgid":1,"name":"polis-tileset","image":"tileset.png","imagewidth":504,"imageheight":756,"tilewidth":16,"tileheight":16,"margin":1,"spacing":2,"columns":28,"tilecount":1176,"tiles":[{"id":100,"properties":[{"name":"cost","type":"float","value":1}]},{"id":101,"properties":[{"name":"cost","type":"float","value":1}]},{"id":102,"properties":[{"name":"cost","type":"float","value":1}]},{"id":128,"properties":[{"name":"cost","type":"float","value":1}]},{"id":129,"properties":[{"name":"cost","type":"float","value":1}]},{"id":130,"properties":[{"name":"cost","type":"float","value":1}]},{"id":140,"properties":[{"name":"cost","type":"float","value":4}]},{"id":156,"properties":[{"name":"cost","type":"float","value":1}]},{"id":157,"properties":[{"name":"cost","type":"float","value":1}]},{"id":158,"properties":[{"name":"cost","type":"float","value":1}]},{"id":186,"properties":[{"name":"cost","type":"float","value":2}]},{"id":224,"properties":[{"name":"cost","type":"float","value":4}]},{"id":225,"properties":[{"name":"cost","type":"float","value":4}]},{"id":226,"properties":[{"name":"cost","type":"float","value":4}]},{"id":237,"properties":[{"name":"cost","type":"float","value":4}]},{"id":248,"properties":[{"name":"cost","type":"float","value":1}]},{"id":249,"properties":[{"name":"cost","type":"float","value":1}]},{"id":266,"properties":[{"name":"cost","type":"float","value":4}]},{"id":329,"properties":[{"name":"cost","type":"float","value":2}]},{"id":330,"properties":[{"name":"cost","type":"float","value":2.5}]},{"id":331,"properties":[{"name":"cost","type":"float","value":2.5}]},{"id":332,"properties":[{"name":"cost","type":"float","value":2}]},{"id":356,"properties":[{"name":"cost","type":"float","value":1}]},{"id":357,"properties":[{"name":"cost","type":"float","value":1}]},{"id":358,"properties":[{"name":"cost","type":"float","value":1}]},{"id":361,"properties":[{"name":"cost","type":"float","value":1}]},{"id":362,"properties":[{"name":"cost","type":"float","value":1}]},{"id":363,"properties":[{"name":"cost","type":"float","value":1}]},{"id":384,"properties":[{"name":"cost","type":"float","value":1}]},{"id":385,"properties":[{"name":"cost","type":"float","value":1}]},{"id":386,"properties":[{"name":"cost","type":"float","value":1}]},{"id":388,"properties":[{"name":"cost","type":"float","value":1}]},{"id":389,"properties":[{"name":"cost","type":"float","value":1}]},{"id":390,"properties":[{"name":"cost","type":"float","value":1}]},{"id":391,"properties":[{"name":"cost","type":"float","value":1}]},{"id":412,"properties":[{"name":"cost","type":"float","value":1}]},{"id":413,"properties":[{"name":"cost","type":"float","value":1}]},{"id":414,"properties":[{"name":"cost","type":"float","value":1}]},{"id":417,"properties":[{"name":"cost","type":"float","value":1}]},{"id":418,"properties":[{"name":"cost","type":"float","value":1}]},{"id":419,"properties":[{"name":"cost","type":"float","value":1}]},{"id":423,"properties":[{"name":"cost","type":"float","value":4}]},{"id":424,"properties":[{"name":"cost","type":"float","value":4}]},{"id":429,"properties":[{"name":"cost","type":"float","value":4}]},{"id":451,"properties":[{"name":"cost","type":"float","value":4}]},{"id":458,"properties":[{"name":"cost","type":"float","value":4}]},{"id":486,"properties":[{"name":"cost","type":"float","value":4}]},{"id":1120,"properties":[{"name":"cost","type":"float","value":1}]},{"id":1121,"properties":[{"name":"cost","type":"float","value":1}]},{"id":1122,"properties":[{"name":"cost","type":"float","value":1}]},{"id":1123,"properties":[{"name":"cost","type":"float","value":1}]}]}],"layers":[{"id":1,"name":"ground","type":"tilelayer","x":0,"y":0,"width":64,"height":42,"opacity":1,"visible":true,"data":[187,187,187,187,187,187,187,187,187,187,187,187,187,187,187,187,187,187,187,187,187,187,187,187,187,187,187,187,187,187,187,187,187,187,187,187,187,187,187,187,187,187,187,187,187,187,332,331,331,331,331,332,331,331,332,331,331,332,331,331,332,331,331,331,187,187,187,187,187,187,187,187,187,187,187,187,187,187,187,187,187,187,330,187,187,187,187,187,187,187,187,187,187,187,187,187,187,187,187,187,187,187,330,187,187,187,187,187,187,187,331,331,331,331,331,331,331,331,332,331,331,331,331,331,331,331,331,331,187,187,187,187,187,187,187,187,187,187,187,187,187,187,187,187,187,187,187,187,187,187,187,187,187,187,187,187,187,187,187,187,187,187,187,187,330,187,187,187,187,187,187,187,187,187,331,331,332,331,331,187,187,187,187,187,187,187,187,187,187,331,331,331,187,187,187,187,187,187,330,187,187,187,187,187,187,187,187,187,187,187,187,187,187,187,187,187,187,187,187,187,187,187,187,187,187,187,187,187,187,187,187,187,187,187,187,187,187,187,331,332,331,331,331,187,187,187,187,187,187,187,187,187,187,331,332,331,187,187,187,187,187,187,187,187,187,187,187,187,187,187,187,187,187,187,187,187,187,187,187,187,187,187,187,187,187,187,187,187,187,187,187,187,187,187,187,187,187,187,187,187,187,187,331,331,331,331,331,187,187,187,330,187,187,187,187,187,187,331,331,331,187,187,187,187,187,187,187,187,187,187,187,187,187,187,187,187,187,187,187,187,187,187,187,330,187,187,187,187,187,330,187,187,187,187,187,187,187,187,187,187,187,187,187,187,187,187,331,331,331,331,331,187,187,187,187,187,187,187,187,187,187,331,331,331,330,187,187,187,187,187,187,187,187,187,187,187,187,187,187,187,187,187,187,187,187,187,187,187,187,187,187,187,187,187,187,187,187,187,187,187,187,187,187,187,187,187,187,187,187,187,331,331,331,331,332,187,187,187,187,187,187,187,187,187,187,332,331,331,187,187,187,187,187,187,187,187,187,187,187,187,187,187,187,187,187,187,187,187,187,187,187,187,187,187,187,187,187,187,187,187,187,187,187,187,187,187,187,187,187,187,187,187,187,187,331,331,332,331,331,187,187,187,187,187,187,187,187,187,187,331,331,331,187,187,187,187,187,187,330,187,187,187,187,187,187,187,187,187,187,187,187,187,187,187,187,187,187,187,187,187,187,187,187,187,187,187,187,187,187,187,187,187,187,187,187,187,187,187,331,332,331,332,332,331,331,331,331,331,187,187,187,187,331,331,331,331,187,187,187,187,187,187,187,187,187,187,187,187,187,187,187,187,187,187,187,187,187,187,187,187,187,187,187,187,187,187,187,187,187,187,187,187,187,187,187,187,187,187,187,187,330,187,331,332,331,332,332,331,331,331,331,331,187,187,187,187,331,331,331,331,187,187,187,187,187,187,187,187,187,187,187,187,187,187,187,187,187,187,187,187,187,187,187,187,187,187,187,187,187,187,187,187,187,187,187,187,187,187,187,187,187,187,187,187,187,187,331,331,331,331,332,331,331,331,331,331,187,187,187,187,331,331,331,331,187,187,187,330,187,187,187,187,187,187,187,187,187,187,187,187,187,187,187,187,187,187,187,187,187,187,187,187,187,187,187,187,187,187,187,187,187,187,187,187,187,187,187,187,187,187,331,331,331,331,331,332,331,332,332,331,187,187,187,187,331,332,331,332,187,187,187,187,187,187,187,187,187,187,187,330,187,187,187,187,187,187,187,187,187,187,187,187,187,187,187,187,187,330,187,187,187,187,187,187,187,187,187,187,187,187,187,187,187,187,331,331,331,332,331,331,331,331,331,331,187,187,187,187,331,332,331,331,187,187,187,187,187,187,187,187,187,330,187,187,187,187,330,187,187,187,187,187,187,187,187,187,187,187,187,187,187,187,187,187,187,187,187,187,187,187,187,187,187,187,187,187,187,187,187,187,187,330,187,187,187,187,187,187,187,187,187,187,330,187,187,187,187,187,187,187,187,187,187,187,187,187,187,187,187,187,187,187,187,187,187,187,187,187,187,187,187,187,187,187,187,187,187,187,187,187,187,187,187,187,187,187,187,187,187,187,187,187,187,187,187,330,187,187,187,187,187,187,187,187,187,187,187,187,187,187,187,187,187,187,330,187,187,187,187,330,187,187,187,330,187,187,187,187,187,187,187,187,187,187,187,187,187,187,187,187,187,187,187,187,187,187,187,187,187,187,187,187,187,187,187,187,187,187,187,187,187,187,187,187,187,187,187,187,187,187,187,187,187,187,187,187,187,187,330,187,187,187,187,187,187,187,187,187,330,187,187,187,330,187,187,187,187,187,187,187,187,187,187,187,187,187,187,187,187,187,187,187,187,187,187,187,187,187,187,187,187,187,187,187,187,187,187,187,187,187,187,187,187,187,187,187,187,187,187,187,187,187,187,187,330,187,187,187,187,187,187,187,187,187,187,187,187,187,187,187,187,187,187,187,187,187,187,187,187,187,187,187,187,187,187,187,187,187,187,187,187,187,187,187,187,187,187,187,187,187,187,187,187,187,187,187,187,187,187,187,187,187,187,187,187,187,187,187,187,187,187,187,187,187,187,187,187,187,187,187,187,187,187,187,187,187,187,187,187,187,187,187,187,187,187,187,330,187,187,187,187,187,187,187,187,187,330,187,187,187,187,330,187,187,187,187,187,187,187,187,187,187,187,187,187,187,187,187,187,187,187,187,187,187,187,187,187,187,187,187,187,187,187,330,187,187,187,187,187,187,187,187,187,187,187,187,187,187,187,187,187,187,187,187,187,330,187,187,187,187,187,187,187,187,187,187,187,187,187,187,187,187,187,187,187,187,187,187,187,187,187,187,187,187,187,187,187,187,187,187,187,187,187,330,187,187,187,187,187,187,187,187,187,187,187,187,187,187,187,187,187,187,187,187,187,187,187,187,187,187,187,187,187,187,187,187,187,187,187,187,187,187,187,187,187,187,187,187,187,187,187,187,187,187,187,187,187,187,187,187,187,187,187,187,187,187,187,187,187,187,187,187,187,187,187,187,187,187,187,187,187,187,330,187,187,187,187,187,187,187,187,187,187,187,187,187,187,187,187,332,331,331,331,331,331,331,331,331,331,331,331,331,331,331,332,331,187,187,187,187,187,187,187,187,187,187,187,187,187,330,187,187,187,187,187,187,330,187,187,187,187,187,187,187,187,187,187,187,187,187,187,187,330,187,187,187,187,187,187,187,187,187,187,331,331,331,331,332,331,331,331,332,331,332,332,331,331,331,332,331,187,187,187,187,187,187,187,187,187,187,187,187,187,187,187,187,187,187,187,187,187,187,187,187,187,187,187,187,187,187,187,187,187,187,187,187,187,187,187,187,187,187,187,187,187,187,330,331,331,331,331,331,331,331,331,331,331,331,331,331,331,331,331,331,187,187,187,187,187,187,187,187,187,330,187,187,187,187,187,187,187,187,187,187,187,187,187,187,330,187,187,187,187,187,187,187,187,187,187,187,187,187,187,187,187,187,187,187,187,187,187,331,187,187,187,187,187,187,187,187,187,187,187,187,187,187,187,187,187,187,187,187,187,187,187,187,187,187,187,187,187,187,187,187,187,187,330,187,187,187,187,187,187,187,187,187,187,187,187,187,187,187,187,187,187,187,187,187,187,187,187,187,187,187,187,331,330,187,187,187,187,187,187,187,187,187,187,187,187,187,187,187,187,187,187,187,187,187,187,187,187,187,187,187,187,187,187,187,187,187,187,187,187,187,187,187,187,187,187,187,187,187,187,187,187,187,187,330,187,187,187,187,187,187,187,187,187,187,187,331,187,187,187,187,187,187,187,187,187,187,187,187,187,187,187,187,187,187,187,187,187,330,187,187,187,187,187,187,187,187,187,187,187,187,187,187,187,187,187,187,187,187,187,187,187,187,187,187,187,187,187,187,187,187,187,187,187,187,187,187,187,187,187,332,187,187,187,187,187,187,187,187,187,187,187,187,187,187,187,187,187,187,187,187,187,187,187,187,187,187,187,187,187,187,187,187,187,187,187,187,187,187,187,187,187,187,187,187,187,187,187,187,187,187,187,187,187,187,187,187,187,187,187,187,187,187,187,331,187,187,187,187,187,187,187,187,187,187,187,187,187,187,187,187,187,187,187,187,187,187,187,187,187,187,187,187,187,187,187,187,187,187,187,187,187,187,187,187,187,187,187,187,187,187,187,187,187,187,187,187,187,187,187,187,187,187,187,187,187,187,187,331,187,187,187,187,187,187,187,187,187,187,187,187,187,187,187,187,187,187,187,187,187,187,187,187,187,187,187,187,187,187,187,187,187,187,187,187,187,187,187,187,187,187,187,187,187,187,187,187,187,187,187,187,187,187,187,187,187,187,330,187,187,187,187,331,187,187,187,187,187,187,187,187,187,187,187,187,187,187,187,187,187,187,187,187,187,187,187,187,187,187,187,187,187,187,187,187,187,187,187,187,187,187,187,187,330,187,187,187,187,187,187,187,187,330,187,187,187,187,187,187,187,187,187,187,187,187,187,331,187,187,187,187,187,187,187,187,187,187,187,187,187,187,187,187,187,187,187,187,187,187,187,187,187,187,187,187,187,187,187,187,187,187,187,187,187,187,187,187,187,187,187,187,187,187,187,187,187,187,187,187,187,187,187,187,187,187,187,187,187,187,187,331,187,187,187,187,187,187,187,187,187,187,331,331,331,331,332,331,187,187,187,187,187,187,187,187,187,187,187,187,187,187,187,187,187,187,187,187,187,187,187,187,187,330,187,187,187,187,187,187,187,187,187,187,187,187,187,187,187,187,187,187,187,187,187,331,331,331,331,331,187,330,187,187,187,331,331,331,331,332,331,331,187,187,187,187,187,187,187,187,187,187,187,187,187,187,187,187,187,187,187,187,187,187,187,187,187,187,187,187,187,187,187,187,187,187,187,187,187,187,187,187,187,187,187,187,187,187,187,187,187,187,187,187,187,187,187,187,187,331,331,332,331,332,331,331,187,187,187,187,187,187,187,187,187,187,187,187,187,187,187,187,187,187,330,187,187,187,187,187,187,187,187,187,187,187,187,187,187,187,187,187,187,187,187,187,187,187,187,187,187,187,187,187,187,187,187,187,187,187,187,187,187,331,331,331,331,331,332,331,187,187,187,187,187,187,187,187,187,187,187,187,187,187,187,187,187,187,187,187,187,187,187,187,187,187,187,187,187,187,187,187,187,187,187,187,187,187,187,187,187,187,187,187,187,187,187,187,187,187,187,187,187,187,187,187,187,331,331,331,331,331,331,331,187,187,187,187,187,187,187,187,187,187,187,187,187,187,187,187,187,187,187,187,187,187,187,187,187,187,187,187,187,187,187,187,187,187,187,187,187,187,187,187,187,187,187,187,187,187,187,187,330,187,187,187,187,187,187,187,187,331,332,332,332,331,332,331,187,187,187,187,330,187,187,187,187,187,187,187,187,187,187,330,187,187,187,187,187,187,187,187,187,187,187,187,187,330,187,187,187,187,187,187,187,187,187,187,187,187,187,187,187,187,187,187,187,187,187,187,187,187,187,187,187,187,187,187,187,187,187,187,187,187,187,187,187,187,187,187,187,187,330,187,187,187,187,187,187,187,187,187,187,187,187,187,187,187,187,187,187,187,187,187,187,187,187,187,187,187,187,187,187,187,187,187,187,187,187,187,187,187,187,187,187,187,187,187,187,187,187,187,187,187,187,187,187,187,187,187,187,187,187,187,187,187,187,330,187,187,187,187,187,187,187,187,187,187,187,187,187,187,187,330,187,187,187,187,187,187,187,187,187,187,187,187,187,187,187,187,187,330,187,187,187,187,187,187,187,187,187,187,187,187,187,187,187,187,187,187,187,187,187,187,187,187,187,187,187,187,187,187,187,187,187,187,187,187,187,187,187,187,187,187,187,187,187,187,187,187,187,187,187,330,187,187,187,187,187,187,187,187,187,187,187,187,187,187,187,187,187,187,187,187,187,187,187,187,187,187,187,187,187,187,187,187]},{"id":2,"name":"paths","type":"tilelayer","x":0,"y":0,"width":64,"height":42,"opacity":1,"visible":true,"data":[0,0,0,0,0,0,0,0,0,0,0,0,0,0,0,0,0,0,0,0,0,0,0,0,0,0,0,0,0,0,0,0,0,0,0,0,0,0,0,0,0,0,0,0,0,0,0,0,0,0,0,0,0,0,0,0,0,0,0,0,0,0,0,0,0,0,0,0,0,0,0,0,0,0,0,0,0,0,0,0,0,0,0,0,0,0,0,0,0,0,0,0,0,0,0,0,0,0,0,0,0,0,0,0,0,0,0,0,0,0,0,0,0,0,0,0,0,0,0,0,0,0,0,0,0,0,0,0,0,0,0,0,0,0,0,0,0,0,0,0,0,0,0,0,0,0,0,0,0,0,0,0,0,0,0,0,0,0,0,0,0,0,0,0,0,0,0,0,0,0,0,0,0,0,0,0,0,0,0,0,0,0,0,357,358,359,0,0,0,0,0,0,0,0,0,0,0,0,0,0,0,0,0,0,0,0,0,0,0,0,0,0,0,0,0,0,0,0,0,0,0,0,0,0,0,0,0,0,0,0,0,0,0,0,0,0,0,0,0,0,0,0,0,0,357,358,358,1121,386,1122,358,359,0,0,0,0,0,0,0,0,0,0,0,0,0,0,0,0,0,0,0,0,0,0,0,0,0,0,0,0,0,0,0,0,0,0,0,0,0,0,0,0,0,0,0,0,0,0,0,0,0,0,0,0,0,0,0,0,385,386,386,386,386,386,386,387,0,0,0,0,0,0,0,0,0,0,0,0,0,0,0,0,0,0,0,0,0,0,0,0,0,0,0,0,0,0,0,0,0,0,0,0,0,0,0,0,0,0,0,0,0,0,0,0,0,0,0,0,0,0,0,0,385,386,386,386,386,386,386,387,0,0,0,0,0,0,0,0,0,0,0,0,0,0,0,0,0,0,0,0,0,0,0,0,0,0,0,0,0,0,0,0,0,0,0,0,0,0,0,0,0,0,0,0,0,0,0,0,0,0,0,0,0,0,0,0,413,414,414,414,414,1123,1124,415,0,0,0,0,0,0,357,358,359,0,0,0,357,358,358,358,358,358,358,359,0,0,0,0,0,0,0,0,0,0,0,0,0,0,357,358,358,358,358,358,358,358,358,358,358,359,0,0,0,0,0,0,0,0,0,0,0,0,0,0,0,385,387,0,0,0,0,0,0,357,1121,386,1122,358,358,358,1121,386,386,386,386,386,386,1122,358,358,358,358,358,358,358,358,358,358,358,358,358,358,1121,386,386,386,386,386,386,386,386,386,386,1122,359,0,0,0,0,0,0,0,0,0,0,0,0,0,0,385,387,0,0,0,0,0,0,413,414,414,414,414,414,414,414,414,414,414,414,414,414,414,414,414,414,414,1123,1124,414,414,414,414,414,414,414,1123,386,386,386,386,386,386,386,386,386,386,386,386,387,0,0,0,0,0,0,0,0,0,0,0,0,0,0,385,387,0,0,0,0,0,0,0,0,0,0,0,0,0,0,0,0,0,0,0,0,0,0,0,0,0,385,387,0,0,0,0,0,0,0,385,386,386,386,386,386,386,386,386,386,386,386,386,387,0,0,0,0,0,0,0,0,0,0,0,0,0,0,385,387,0,0,0,0,0,0,0,0,0,0,0,0,0,0,0,0,0,0,0,0,0,0,0,0,0,385,387,0,0,0,0,0,0,0,385,386,386,386,386,386,386,386,386,386,386,386,386,387,0,0,0,0,0,0,0,0,0,0,0,0,0,0,385,387,0,0,0,0,0,0,0,0,0,0,0,0,0,0,0,0,0,0,0,0,0,0,0,0,0,385,387,0,0,0,0,0,0,357,1121,386,386,386,386,386,386,386,386,386,386,386,386,1122,359,0,0,0,0,0,0,0,0,0,0,0,0,0,385,387,0,0,0,0,0,0,0,0,0,0,0,0,0,0,0,0,0,0,0,0,0,0,0,0,0,385,387,0,0,0,0,0,0,385,386,386,386,386,386,386,386,386,386,386,386,386,386,386,387,0,0,0,0,0,0,0,0,0,0,0,0,0,385,387,0,0,0,0,0,0,357,358,358,359,0,357,358,358,359,0,357,358,358,359,0,357,358,358,358,1121,387,0,0,0,0,0,0,385,386,386,386,386,386,386,386,386,386,386,386,386,386,386,387,0,0,0,0,0,0,0,0,0,0,0,0,0,385,387,0,0,0,0,0,0,385,386,386,1122,358,1121,386,386,1122,358,1121,386,386,1122,358,1121,386,386,386,386,387,0,0,0,0,0,0,385,386,386,386,386,386,386,386,386,386,386,386,386,386,386,387,0,0,0,0,0,0,0,0,0,0,0,0,0,385,387,0,0,0,0,0,0,413,414,414,414,414,414,414,414,414,414,414,414,414,414,414,414,414,414,414,1123,387,0,0,0,0,0,0,385,386,386,386,386,362,363,363,363,363,364,386,386,386,386,387,0,0,0,357,358,358,359,0,0,0,0,0,0,385,387,0,0,0,0,0,0,0,0,0,0,0,0,0,0,0,0,0,0,0,0,0,0,0,0,0,385,387,0,0,0,0,0,0,385,386,386,386,386,390,391,391,391,391,392,386,386,386,386,1122,358,358,358,1121,386,386,1122,358,358,358,358,358,358,1121,1122,359,0,0,0,0,0,0,0,0,0,0,0,0,0,0,0,0,0,0,0,0,0,0,0,0,385,387,0,0,0,0,0,0,385,386,386,386,386,390,391,391,391,391,392,386,386,386,386,1124,414,414,414,414,414,414,414,414,414,414,414,414,414,414,414,415,0,0,0,0,0,0,0,0,0,0,0,0,0,0,0,0,0,0,0,0,0,0,0,0,385,387,0,0,0,0,0,0,385,386,386,386,386,390,391,391,391,391,392,386,386,386,386,387,0,0,0,0,0,0,0,0,0,0,0,0,0,0,0,0,0,0,0,0,0,0,0,0,0,0,0,0,0,0,0,0,0,0,0,0,0,0,0,0,385,387,0,0,0,0,0,0,385,386,386,386,386,390,391,391,391,391,392,386,386,386,386,387,0,0,0,0,0,0,0,0,0,0,0,0,0,0,0,0,0,0,0,0,0,357,358,358,359,0,357,358,358,359,0,357,358,358,359,0,357,358,358,358,1121,387,0,0,0,0,0,0,385,386,386,386,386,418,419,419,419,419,420,386,386,386,386,387,0,0,0,0,0,0,0,0,0,0,0,0,0,0,0,0,0,0,0,0,0,385,386,386,1122,358,1121,386,386,1122,358,1121,386,386,1122,358,1121,386,386,386,386,387,0,0,0,0,0,0,385,386,386,386,386,386,386,386,386,386,386,386,386,386,386,387,0,0,0,0,0,0,0,0,0,0,0,0,0,0,0,0,0,0,0,0,0,413,414,414,414,414,414,414,414,414,414,414,414,414,414,414,414,414,414,414,1123,387,0,0,0,0,0,0,385,386,386,386,386,386,386,386,386,386,386,386,386,386,386,387,0,0,0,0,0,0,0,0,0,0,0,0,0,0,0,0,0,0,0,0,0,0,0,0,0,0,0,0,0,0,0,0,0,0,0,0,0,0,0,0,385,387,0,0,0,0,0,0,413,414,414,414,414,414,1123,386,1124,414,414,414,414,414,414,415,0,0,0,0,0,0,0,357,358,358,359,0,0,0,0,0,0,0,0,0,0,0,0,0,0,0,0,0,0,0,0,0,0,0,0,0,0,0,0,0,385,387,0,0,0,0,0,0,0,0,0,0,0,0,385,386,387,0,0,0,0,0,0,0,0,0,0,357,358,358,358,1121,386,386,387,0,0,0,0,0,0,0,0,0,0,0,0,0,0,0,0,0,0,0,0,0,0,0,0,0,0,0,0,0,385,387,0,0,0,0,0,0,0,0,0,0,0,0,385,386,387,0,0,0,0,0,0,0,0,0,0,385,386,386,386,386,386,386,387,0,0,0,0,0,0,0,0,0,0,0,0,0,0,0,0,0,0,0,0,0,0,0,0,0,0,0,0,0,385,387,0,0,0,0,0,0,0,0,0,0,0,0,385,386,387,0,0,0,0,0,0,0,0,0,0,385,386,386,386,386,386,386,387,0,0,0,0,0,0,0,0,0,0,0,0,0,0,0,0,0,0,0,0,0,0,0,0,0,0,0,0,0,385,387,0,0,0,0,0,0,0,0,357,358,358,358,1121,386,1122,358,358,358,358,358,359,0,0,0,0,385,386,386,386,386,386,386,387,0,0,0,0,0,0,0,0,0,0,0,357,358,358,358,358,358,358,358,358,358,358,358,358,358,358,358,358,358,1121,387,0,0,0,0,0,357,358,358,1121,386,386,386,386,386,386,386,386,386,386,386,387,0,0,0,0,385,386,386,386,386,386,386,387,0,0,0,0,0,0,0,0,0,0,0,413,414,414,414,414,414,414,414,414,414,414,414,414,414,414,414,414,414,414,415,0,0,0,0,0,413,414,414,1123,386,386,386,386,386,386,386,386,386,386,386,387,0,0,0,0,385,386,386,386,386,386,386,387,0,0,0,0,0,0,0,0,0,0,0,0,0,0,0,0,0,0,0,0,0,0,0,0,0,0,0,0,0,0,0,0,0,0,0,0,0,0,0,385,386,386,386,386,386,386,386,386,386,386,386,387,0,0,0,0,413,414,414,414,1123,386,1124,415,0,0,0,0,0,0,0,0,0,0,0,0,0,0,0,0,0,0,0,0,0,0,0,0,0,0,0,0,0,0,0,0,0,0,0,0,0,0,0,413,414,414,414,1123,386,1124,414,414,414,414,414,415,0,0,0,0,0,0,0,0,385,386,387,0,0,0,0,0,0,0,0,0,0,0,0,0,0,0,0,0,0,0,0,0,0,0,0,0,0,0,0,0,0,0,0,0,0,0,0,0,0,0,0,0,0,0,0,385,386,387,0,0,0,0,0,0,0,0,0,0,0,0,0,0,385,386,387,0,0,0,0,0,0,0,0,0,0,0,0,0,0,0,0,0,0,0,0,0,0,0,0,0,0,0,0,0,0,0,0,0,0,0,0,0,0,0,0,0,0,0,0,385,386,387,0,0,0,0,0,0,0,0,0,0,0,0,0,0,385,386,387,0,0,0,0,0,0,0,0,0,0,0,0,0,0,0,0,0,0,0,0,0,0,0,0,0,0,0,0,0,0,0,0,0,0,0,0,0,0,0,0,0,0,0,0,385,386,1122,358,358,358,358,358,358,358,358,358,358,358,358,358,358,1121,386,387,0,0,0,0,0,0,0,0,0,0,0,0,0,0,0,0,0,0,0,0,0,0,0,0,0,0,0,0,0,0,0,0,0,0,0,0,0,0,0,0,0,0,0,0,385,386,1124,414,414,414,414,414,414,414,414,414,414,414,414,414,414,414,414,415,0,0,0,0,0,0,0,0,0,0,0,0,0,0,0,0,0,0,0,0,0,0,0,0,0,0,0,0,0,0,0,0,0,0,0,0,0,0,0,0,0,0,0,0,385,386,387,0,0,0,0,0,0,0,0,0,0,0,0,0,0,0,0,0,0,0,0,0,0,0,0,0,0,0,0,0,0,0,0,0,0,0,0,0,0,0,0,0,0,0,0,0,0,0,0,0,0,0,0,0,0,0,0,0,0,0,0,0,385,386,387,0,0,0,0,0,0,0,0,0,0,0,0,0,0,0,0,0,0,0,0,0,0,0,0,0,0,0,0,0,0,0,0,0,0,0,0,0,0,0,0,0,0,0,0,0,0,0,0,0,0,0,0,0,0,0,0,0,0,0,0,0,385,386,387,0,0,0,0,0,0,0,0,0,0,0,0,0,0,0,0,0,0,0,0,0,0,0,0,0,0,0,0,0,0,0,0,0,0,0,0,0,0,0,0,0,0,0,0,0,0,0,0,0,0,0,0,0,0,0,0,0,0,0,0,0,385,386,387,0,0,0,0,0,0,0,0,0,0,0,0,0,0,0,0,0,0,0,0,0,0,0,0,0,0,0,0,0,0,0,0,0,0,0,0,0,0,0,0,0,0,0,0,0,0,0,0,0,0,0,0,0,0,0,0,0,0,0,0,0,385,386,387,0,0,0,0,0,0,0,0,0,0,0,0,0,0,0,0,0,0,0,0,0,0,0,0,0,0,0]},{"id":3,"name":"water","type":"tilelayer","x":0,"y":0,"width":64,"height":42,"opacity":1,"visible":true,"data":[0,0,0,0,0,0,0,0,0,0,0,0,0,0,0,0,0,0,0,0,0,0,0,0,0,0,0,0,0,0,0,0,0,0,0,0,0,0,0,0,0,0,0,0,0,0,0,0,0,0,0,0,0,0,0,0,0,0,0,0,0,0,0,0,0,0,0,0,0,0,0,0,0,0,0,0,0,0,0,0,0,0,0,0,0,0,0,0,0,0,0,0,0,0,0,0,0,0,0,0,0,0,0,0,0,0,0,0,0,0,0,0,0,0,0,0,0,0,0,0,0,0,0,0,0,0,0,0,0,0,0,0,0,0,0,0,0,0,0,0,0,0,0,0,0,0,0,0,0,0,0,0,0,0,0,0,0,0,0,0,0,0,0,0,0,0,0,0,0,0,0,0,0,0,0,0,0,0,0,0,0,0,0,0,0,0,0,0,0,0,0,0,0,0,0,0,0,0,0,0,0,0,0,0,0,0,0,0,0,0,0,0,0,0,187,189,189,189,191,0,0,0,0,0,0,0,0,0,0,0,0,0,0,0,0,0,0,0,0,0,0,0,0,0,0,0,0,0,0,0,0,0,0,0,0,0,0,0,0,0,0,0,0,0,0,0,0,0,0,0,0,0,0,0,0,0,0,0,243,216,217,218,247,0,0,0,0,0,0,0,0,0,0,0,0,0,0,0,0,0,0,0,0,0,0,0,0,0,0,0,0,0,0,0,0,0,0,0,0,0,0,0,0,0,0,0,0,0,0,0,0,0,0,0,0,0,0,0,0,0,0,0,243,244,220,246,247,0,0,0,0,0,0,0,0,0,0,0,0,0,0,0,0,0,0,0,0,0,0,0,0,0,0,0,0,0,0,0,0,0,0,0,0,0,0,0,0,0,0,0,0,0,0,0,0,0,0,0,0,0,0,0,0,0,0,0,243,244,220,246,247,0,0,0,0,0,0,0,0,0,0,0,0,0,0,0,0,0,0,0,0,0,0,0,0,0,0,0,0,0,0,0,0,0,0,0,0,0,0,0,0,0,0,0,0,0,0,0,0,0,0,0,0,0,0,0,0,0,0,0,243,244,245,246,247,0,0,0,0,0,0,0,0,0,0,0,0,0,0,0,0,0,0,0,0,0,0,0,0,0,0,0,0,0,0,0,0,0,0,0,0,0,0,0,0,0,0,0,0,0,0,0,0,0,0,0,0,0,0,0,0,0,0,0,243,244,245,246,247,0,0,0,0,0,0,0,0,0,0,0,0,0,0,0,0,0,0,0,0,0,0,0,0,0,0,0,0,0,0,0,0,0,0,0,0,0,0,0,0,0,0,0,0,0,0,0,0,0,0,0,0,0,0,0,0,0,0,0,243,244,245,246,247,0,0,0,0,0,0,0,0,0,0,0,0,0,0,0,0,0,0,0,0,0,0,0,0,0,0,0,0,0,0,0,0,0,0,0,0,0,0,0,0,0,0,0,0,0,0,0,0,0,0,0,0,0,0,0,0,0,0,0,243,244,220,246,247,0,0,0,0,0,0,0,0,0,0,0,0,0,0,0,0,0,0,0,0,0,0,0,0,0,0,0,0,0,0,0,0,0,0,0,0,0,0,0,0,0,0,0,0,0,0,0,0,0,0,0,0,0,0,0,0,0,0,0,243,244,276,246,247,0,0,0,0,0,0,0,0,0,0,0,0,0,0,0,0,0,0,0,0,0,0,0,0,0,0,0,0,0,0,0,0,0,0,0,0,0,0,0,0,0,0,0,0,0,0,0,0,0,0,0,0,0,0,0,0,0,0,0,243,244,192,246,247,0,0,0,0,0,0,0,0,0,0,0,0,0,0,0,0,0,0,0,0,0,0,0,0,0,0,0,0,0,0,0,0,0,0,0,0,0,0,0,0,0,0,0,0,0,0,0,0,0,0,0,0,0,0,0,0,0,0,0,243,244,245,246,247,0,0,0,0,0,0,0,0,0,0,0,0,0,0,0,0,0,0,0,0,0,0,0,0,0,0,0,0,0,0,0,0,0,0,0,0,0,0,0,0,0,0,0,0,0,0,0,0,0,0,0,0,0,0,0,0,0,0,0,243,244,245,246,247,0,0,0,0,0,0,0,0,0,0,0,0,0,0,0,0,0,0,0,0,0,0,0,0,0,0,0,0,0,0,0,0,0,0,0,0,0,0,0,0,0,0,0,0,0,0,0,0,0,0,0,0,0,0,0,0,0,0,0,243,244,245,246,247,0,0,0,0,0,0,0,0,0,0,0,0,0,0,0,0,0,0,0,0,0,0,0,0,0,0,0,0,0,0,0,0,0,0,0,0,0,0,0,0,0,0,0,0,0,0,0,0,0,0,0,0,0,0,0,0,0,0,0,243,244,245,246,247,0,0,0,0,0,0,0,0,0,0,0,0,0,0,0,0,0,0,0,0,0,0,0,0,0,0,0,0,0,0,0,0,0,0,0,0,0,0,0,0,0,0,0,0,0,0,0,0,0,0,0,0,0,0,0,0,0,0,0,243,244,245,246,247,0,0,0,0,0,0,0,0,0,0,0,0,0,0,0,0,0,0,0,0,0,0,0,0,0,0,0,0,0,0,0,0,0,0,0,0,0,0,0,0,0,0,0,0,0,0,0,0,0,0,0,0,0,0,0,0,0,0,0,243,244,245,246,247,0,0,0,0,0,0,0,0,0,0,0,0,0,0,0,0,0,0,0,0,0,0,0,0,0,0,0,0,0,0,0,0,0,0,0,0,0,0,0,0,0,0,0,0,0,0,0,0,0,0,0,0,0,0,0,0,0,0,0,243,244,192,246,247,0,0,0,0,0,0,0,0,0,0,0,0,0,0,0,0,0,0,0,0,0,0,0,0,0,0,0,0,0,0,0,0,0,0,0,0,0,0,0,0,0,0,0,0,0,0,0,0,0,0,0,0,0,0,0,0,0,0,0,243,244,245,246,247,0,0,0,0,0,0,0,0,0,0,0,0,0,0,0,0,0,0,0,0,0,0,0,0,0,0,0,0,0,0,0,0,0,0,0,0,0,0,0,0,0,0,0,0,0,0,0,0,0,0,0,0,0,0,0,0,0,0,0,243,244,245,246,247,0,0,0,0,0,0,0,0,0,0,0,0,0,0,0,0,0,0,0,0,0,0,0,0,0,0,0,0,0,0,0,0,0,0,0,0,0,0,0,0,0,0,0,0,0,0,0,0,0,0,0,0,0,0,0,0,0,0,0,243,244,276,246,247,0,0,0,0,0,0,0,0,0,0,0,0,0,0,0,0,0,0,0,0,0,0,0,0,0,0,0,0,0,0,0,0,0,0,0,0,0,0,0,0,0,0,0,0,0,0,0,0,0,0,0,0,0,0,0,0,0,0,0,243,244,220,246,247,0,0,0,0,0,0,0,0,0,0,0,0,0,0,0,0,0,0,0,0,0,0,0,0,0,0,0,0,0,0,0,0,0,0,0,0,0,0,0,0,0,0,0,0,0,0,0,0,0,0,0,0,0,0,0,0,0,0,0,243,244,245,246,247,0,0,0,0,0,0,0,0,0,0,0,0,0,0,0,0,0,0,0,0,0,0,0,0,0,0,0,0,0,0,0,0,0,0,0,0,0,0,0,0,0,0,0,0,0,0,0,0,0,0,0,0,0,0,0,0,0,0,0,243,244,245,246,247,0,0,0,0,0,0,0,0,0,0,0,0,0,0,0,0,0,0,0,0,0,0,0,0,0,0,0,0,187,189,189,189,189,191,0,0,0,0,0,0,0,0,0,0,0,0,0,0,0,0,0,0,0,0,0,0,0,0,0,243,244,245,246,247,0,0,0,0,0,0,0,0,0,0,0,0,0,0,0,0,0,0,0,0,0,0,0,0,0,0,0,0,243,216,217,217,218,247,0,0,0,0,0,0,0,0,0,0,0,0,0,0,0,0,0,0,0,0,0,0,0,0,0,243,244,245,246,247,0,0,0,0,0,0,0,0,0,0,0,0,0,0,0,0,0,0,0,0,0,0,0,0,0,0,0,0,243,244,245,245,246,247,0,0,0,0,0,0,0,0,0,0,0,0,0,0,0,0,0,0,0,0,0,0,0,0,0,243,244,245,246,247,0,0,0,0,0,0,0,0,0,0,0,0,0,0,0,0,0,0,0,0,0,0,0,0,0,0,0,0,243,244,245,220,246,247,0,0,0,0,0,0,0,0,0,0,0,0,0,0,0,0,0,0,0,0,0,0,0,0,0,243,244,245,246,247,0,0,0,0,0,0,0,0,0,0,0,0,0,0,0,0,0,0,0,0,0,0,0,0,0,0,0,0,243,272,273,273,274,247,0,0,0,0,0,0,0,0,0,0,0,0,0,0,0,0,0,0,0,0,0,0,0,0,0,243,244,245,246,247,0,0,0,0,0,0,0,0,0,0,0,0,0,0,0,0,0,0,0,0,0,0,0,0,0,0,0,0,299,301,301,301,301,303,0,0,0,0,0,0,0,0,0,0,0,0,0,0,0,0,0,0,0,0,0,0,0,0,0,243,244,245,246,247,0,0,0,0,0,0,0,0,0,0,0,0,0,0,0,0,0,0,0,0,0,0,0,0,0,0,0,0,0,0,0,0,0,0,0,0,0,0,0,0,0,0,0,0,0,0,0,0,0,0,0,0,0,0,0,0,0,0,0,243,244,245,246,247,0,0,0,0,0,0,0,0,0,0,0,0,0,0,0,0,0,0,0,0,0,0,0,0,0,0,0,0,0,0,0,0,0,0,0,0,0,0,0,0,0,0,0,0,0,0,0,0,0,0,0,0,0,0,0,0,0,0,0,243,244,245,246,247,0,0,0,0,0,0,0,0,0,0,0,0,0,0,0,0,0,0,0,0,0,0,0,0,0,0,0,0,0,0,0,0,0,0,0,0,0,0,0,0,187,189,189,189,189,189,189,191,0,0,0,0,0,0,0,0,0,0,0,243,244,245,246,247,0,0,0,0,0,0,0,0,0,0,0,0,0,0,0,0,0,0,0,0,0,0,0,0,0,0,0,0,0,0,0,0,0,0,0,0,0,0,0,0,243,216,217,217,217,217,218,247,0,0,0,0,0,0,0,0,0,0,0,243,244,245,246,247,0,0,0,0,0,0,0,0,0,0,0,0,0,0,0,0,0,0,0,0,0,0,0,0,0,0,0,0,0,0,0,0,0,0,0,0,0,0,0,0,243,244,245,245,245,245,246,247,0,0,0,0,0,0,0,0,0,0,0,243,272,273,274,247,0,0,0,0,0,0,0,0,0,0,0,0,0,0,0,0,0,0,0,0,0,0,0,0,0,0,0,0,0,0,0,0,0,0,0,0,0,0,0,0,243,272,273,273,273,273,274,247,0,0,0,0,0,0,0,0,0,0,0,299,301,301,301,303,0,0,0,0,0,0,0,0,0,0,0,0,0,0,0,0,0,0,0,0,0,0,0,0,0,0,0,0,0,0,0,0,0,0,0,0,0,0,0,0,299,301,301,301,301,301,301,303,0,0,0,0,0,0,0,0,0,0,0,0,0,0,0,0,0,0,0,0,0,0,0,0,0,0,0,0,0,0,0,0,0,0,0,0,0,0,0,0,0,0,0,0,0,0,0,0,0,0,0,0,0,0,0,0,0,0,0,0,0,0,0,0,0,0,0,0,0,0,0,0,0,0,0,0,0,0,0,0,0,0,0,0,0,0,0,0,0,0,0,0,0,0,0,0,0,0,0,0,0,0,0,0,0,0,0,0,0,0,0,0,0,0,0,0,0,0,0,0,0,0,0,0,0,0,0,0,0,0,0,0,0,0,0,0,0,0,0,0,0,0,0,0,0,0,0,0,0,0,0,0,0,0,0,0,0,0,0,0,0,0,0,0,0,0,0,0,0,0,0,0,0,0,0,0,0,0,0,0,0,0,0,0,0,0,0,0,0,0,0,0,0,0,0,0,0,0,0,0,0,0,0,0,0,0,0,0,0,0,0,0,0,0,0,0,0,0,0,0,0,0,0,0,0,0,0,0,0,0,0,0,0,0,0,0,0,0,0,0,0,0,0,0,0]},{"id":4,"name":"deco","type":"tilelayer","x":0,"y":0,"width":64,"height":42,"opacity":1,"visible":true,"data":[0,0,0,0,0,0,0,0,0,0,0,0,0,0,0,0,0,0,0,0,0,0,0,0,0,0,0,0,0,0,0,0,0,0,0,0,0,0,0,0,0,0,0,0,0,0,0,0,0,0,0,0,0,0,0,0,0,0,0,0,0,0,0,0,0,0,0,0,0,0,0,0,0,0,0,0,0,0,0,0,0,0,0,0,0,0,0,0,0,0,0,0,0,0,0,0,0,0,0,0,0,0,0,0,0,0,0,0,0,0,0,0,0,0,0,0,0,0,0,0,0,0,0,0,0,0,0,0,0,0,0,0,0,0,0,0,0,0,0,0,0,0,0,0,0,0,0,0,0,0,0,0,0,0,0,0,0,0,0,0,0,0,0,0,0,0,0,0,0,0,0,0,0,0,0,452,0,0,0,0,0,0,0,0,0,0,0,141,0,0,0,0,0,0,0,424,0,0,0,0,0,225,0,0,0,0,424,0,0,0,0,0,0,0,0,0,0,0,0,0,0,0,0,0,141,226,0,0,0,0,0,0,0,0,0,0,0,0,0,452,0,0,0,0,0,0,0,0,0,0,0,0,0,0,0,0,0,0,424,0,0,0,0,0,0,225,226,0,0,141,0,0,0,0,0,0,225,0,0,0,0,0,0,0,0,0,141,0,0,141,0,0,0,0,0,0,0,0,0,0,0,0,0,0,0,0,0,0,0,0,0,0,0,0,0,0,0,425,0,0,0,0,226,0,0,0,0,0,0,0,0,0,0,0,0,0,0,141,0,226,0,0,0,0,0,0,0,0,0,0,0,0,0,0,0,0,0,0,0,0,0,0,0,0,0,0,0,0,0,0,0,0,0,0,0,0,0,0,0,0,0,0,0,0,0,0,0,0,0,0,0,0,0,0,0,0,0,0,0,0,226,0,0,225,0,0,0,0,0,0,0,0,0,225,0,0,0,0,0,0,0,0,0,0,0,0,0,141,0,0,0,0,0,141,430,425,0,0,0,0,0,0,0,0,0,141,0,0,0,0,0,0,0,0,0,0,0,0,0,0,0,0,0,0,0,0,0,0,0,0,0,0,0,0,0,0,0,225,0,0,0,0,0,0,0,0,0,0,0,0,0,0,0,0,452,0,0,0,452,0,0,0,0,0,0,0,0,0,0,0,0,0,0,0,0,0,0,0,0,0,0,0,0,0,0,0,0,0,0,0,0,0,0,0,0,0,0,0,0,0,0,0,0,0,0,0,101,102,103,0,0,0,0,0,0,0,0,0,0,0,0,0,0,0,0,0,0,0,0,0,0,0,0,0,0,0,0,0,0,0,0,0,0,0,0,0,0,0,0,0,0,0,0,0,0,0,0,0,249,250,250,250,2147483897,0,0,0,0,0,0,0,129,130,131,0,0,0,0,0,0,0,0,0,425,0,0,0,0,0,0,0,0,0,0,0,0,0,0,0,0,0,0,0,141,0,0,0,0,141,0,0,226,425,141,0,0,425,141,424,0,0,0,0,0,0,0,0,0,0,0,0,0,0,0,0,157,158,159,0,0,0,0,0,0,141,0,0,0,0,0,0,452,0,141,0,0,0,238,0,0,0,0,0,0,0,0,0,0,0,0,0,0,0,0,0,0,0,0,0,0,0,0,0,0,0,0,0,0,0,0,0,0,0,0,0,0,0,0,0,0,0,0,0,0,0,0,0,0,141,0,0,452,0,0,141,0,0,0,0,0,0,0,0,0,0,0,141,0,0,0,0,0,0,0,0,0,0,0,0,0,0,0,0,0,0,0,0,0,0,0,0,0,0,0,0,0,0,0,0,0,0,0,0,0,0,0,0,0,0,0,0,0,0,0,0,430,238,0,0,0,0,425,0,0,0,0,0,0,0,0,0,0,0,0,0,0,0,0,0,0,0,0,0,0,0,0,0,0,0,0,0,0,0,0,0,0,0,0,0,0,0,0,0,424,226,0,0,0,0,0,0,0,0,226,424,0,0,0,0,0,0,0,0,0,0,0,0,0,0,0,0,0,0,0,0,0,0,0,0,0,0,0,0,0,0,0,0,0,0,0,0,0,0,0,0,0,0,0,0,0,0,0,0,0,0,0,0,0,0,0,0,0,0,0,0,0,0,0,0,0,0,0,0,0,0,0,0,0,0,0,0,0,0,0,0,0,0,0,0,0,0,0,0,0,0,0,0,0,0,0,0,0,0,0,0,0,0,0,0,0,0,0,0,0,0,0,0,0,0,0,0,0,0,0,0,0,0,0,0,0,0,0,0,0,0,0,0,0,0,0,0,0,0,0,0,0,0,0,0,0,0,0,0,0,0,0,0,0,0,0,0,0,0,0,0,0,0,0,0,0,0,0,0,0,0,0,0,0,0,0,0,0,0,0,0,0,0,0,0,0,0,0,0,0,0,0,0,0,0,0,0,0,0,0,0,0,0,0,0,0,0,0,0,0,0,0,0,0,0,0,0,0,0,0,0,0,0,0,0,0,0,0,0,0,0,0,0,0,0,0,0,0,0,0,0,0,0,0,0,0,0,0,0,0,0,0,0,0,0,0,0,0,0,0,0,0,0,0,0,0,0,0,0,0,0,0,0,0,0,0,0,0,0,0,0,0,0,0,0,0,0,0,0,0,0,0,0,0,0,0,0,0,0,0,0,0,0,0,0,0,0,0,425,0,0,0,0,0,0,0,0,0,0,0,0,425,0,0,0,0,0,0,0,0,0,0,0,0,0,0,0,0,0,0,0,0,0,0,0,0,0,0,0,0,0,0,0,0,0,0,0,0,0,0,0,0,0,0,0,0,0,0,0,0,0,0,0,0,0,0,0,0,0,0,0,0,0,0,0,0,0,0,0,0,0,0,0,0,0,0,425,0,141,0,0,0,0,267,267,0,0,0,0,0,0,0,0,0,0,0,0,0,0,0,0,0,0,0,0,0,0,0,0,0,0,0,0,0,0,0,0,0,0,0,0,0,0,0,0,0,0,0,0,0,0,0,0,0,0,0,0,0,0,267,0,0,0,0,0,0,0,0,0,0,0,0,0,0,0,0,0,0,0,0,0,0,0,0,0,0,0,0,0,0,0,0,0,0,0,0,0,0,0,0,0,0,0,0,0,0,0,0,0,0,0,0,0,0,0,0,0,0,0,0,0,0,0,0,0,0,0,0,0,0,267,0,0,0,0,0,0,0,0,0,0,0,0,0,0,0,0,0,0,0,0,0,0,0,0,0,0,0,0,0,0,0,0,0,0,0,0,0,0,0,0,0,0,0,0,0,0,0,0,0,0,0,0,0,267,0,0,0,0,0,0,452,452,0,0,0,0,0,0,0,0,0,0,0,0,0,0,0,0,0,0,0,0,0,0,0,0,0,0,0,0,0,0,0,0,0,0,0,0,226,424,0,0,0,0,0,0,0,0,424,226,0,0,0,0,425,267,267,0,0,0,0,0,0,0,0,0,0,267,430,141,0,0,0,0,0,0,0,0,0,0,0,0,0,0,0,0,0,0,0,0,0,0,0,0,0,0,0,0,0,0,0,0,0,0,0,0,0,0,0,0,0,0,0,0,0,0,141,141,0,0,0,0,0,0,0,0,0,0,0,141,0,0,0,0,0,0,0,0,0,0,0,0,0,225,0,0,0,0,226,0,0,0,0,0,225,226,0,0,0,0,0,0,0,0,0,0,0,0,0,0,0,0,0,0,226,0,0,141,0,141,425,0,0,0,0,0,0,0,0,0,0,0,0,0,0,0,0,0,0,0,0,0,0,0,0,0,0,0,0,0,0,226,0,0,0,141,0,0,0,0,0,0,0,0,0,0,0,0,141,141,0,424,225,226,0,0,0,0,0,0,0,0,0,0,425,452,0,0,0,0,0,0,0,0,0,0,0,0,0,0,0,0,0,0,0,0,0,0,0,0,0,0,0,226,0,0,141,0,0,0,0,0,0,225,0,0,0,0,0,0,0,424,424,0,0,0,0,225,0,0,0,0,0,0,0,0,425,226,0,226,0,0,0,0,0,0,0,0,0,0,0,0,0,0,0,0,0,0,0,0,0,0,0,0,0,0,0,0,0,0,0,0,0,0,0,0,0,0,0,0,0,0,0,0,0,225,0,226,0,0,0,0,0,0,0,0,0,0,0,0,0,0,0,226,0,0,0,0,0,0,0,0,0,0,0,0,0,0,0,0,0,0,0,0,0,0,0,0,0,0,0,0,0,0,0,0,0,0,0,0,0,0,0,0,249,250,250,250,2147483897,0,0,0,0,0,0,0,0,0,0,0,0,0,0,0,0,0,0,0,0,0,0,0,0,0,0,0,0,0,0,0,0,0,0,0,0,0,0,0,0,0,0,0,0,0,0,0,0,0,0,0,0,0,0,0,0,0,0,0,0,0,0,0,0,0,0,0,0,0,0,0,0,0,0,0,0,0,0,0,0,226,0,0,0,0,0,0,0,0,0,0,0,0,0,0,0,0,0,0,0,0,0,0,0,0,0,0,0,0,0,0,0,0,0,0,0,0,0,0,0,0,0,0,0,0,0,0,0,0,0,0,0,0,0,0,0,0,0,0,0,0,0,0,0,0,0,0,0,0,0,0,0,0,0,0,0,0,0,0,0,0,0,430,0,0,0,0,0,0,0,226,0,0,0,0,0,0,0,0,0,0,0,141,0,0,0,0,0,0,0,0,0,0,0,0,0,0,0,0,0,0,0,0,0,0,0,0,0,0,0,0,0,0,0,0,0,0,0,0,0,0,0,0,0,0,425,0,0,0,0,0,0,0,0,0,0,0,0,226,0,0,0,0,0,226,0,0,0,0,0,0,0,0,0,0,0,0,0,0,0,141,0,0,0,0,0,0,0,0,0,0,0,226,0,0,452,0,0,452,0,0,0,0,424,0,0,0,0,0,0,0,0,0,0,0,0,0,0,0,0,0,0,0,0,0,0,0,0,141,0,0,0,0,226,0,0,0,0,0,0,0,0,0,0,0,0,0,0,0,0,0,0,0,0,0,0,141,0,430,0,0,0,0,0,0,0,0,0,0,0,0,0,0,0,0,0,0,0,0,0,0,0,0,0,0,0,0,0,0,0,0,0,0,0,424,225,424,0,0,0,0,0,0,0,0,0,0,0,0,0,0,0,0,0,0,0,0,0,0,0,0,0,0,0,0,0,0,0,0,0,0,0,0,0,0,0,0,267,0,0,0,0,0,0,0,0,0,0,0,0,0,0,0,0,0,0,0,0,0,0,0,141,0,0,0,0,0,0,0,0,0,0,0,0,0,0,0,0,0,0,0,0,0,0,0,0,0,0,0,0,0,0,0,0,0,0,0,0,0,0,0,0,0,0,0,0,0,0,0,0,0,0,0,0,0,0,0,0,0,0,0,0,0,0,0,0,0,0,0,0,0,0,0,0,0,0,0,0,0,0,0,0,0,225,0,141,0,0,0,0,0,267,430,0,452,0,430,0,0,0,0,0,0,0,0,0,0,0,0,0,0,0,0,0,307,308,0,0,0,0,0,0,0,0,0,0,0,0,0,0,0,0,0,0,0,0,424,0,0,0,0,0,0,0,0,0,0,0,0,0,0,0,0,225,0,0,0,0,0,0,0,0,0,0,0,0,0,0,0,0,0,0,0,0,0,0,0,141,226,0,0,0,0,0,226,0,0,0,0,0,0,0,0,0,0,0,0,0,0,0,0,0,0,0,0,0,0,0,0,0,0,0,0,0,0,0,0,226,0,0,0,0,0,0,0,0,0,0,0,0,0,0,0,0,0,0,0,0,0,0,0,0,0,0,0,0,0,0,0,0,0,0,0,0,0,0,0,0,0,0,0,0,0,0,0,0,0,0,0,0,0,0,0,0,0,225,141,0,0,0,0,0,0,0,0,0,0,0,0,0,0,0,0,0,0,0,0,0,0,0,0,0,0,0,0,0,0,0,0,0,0,0,0,0,0,0,0,0,0,0,0,0,0,0,0,0,0,0,0,0,0,0,0,0,0,0,0,0,0,0,0,0,0,0,0,0,0,0,0,0,0,0,0,0,0,0,0,0,0,0,0,0,0,0,0]},{"id":5,"name":"buildings","type":"tilelayer","x":0,"y":0,"width":64,"height":42,"opacity":1,"visible":true,"data":[0,0,0,0,0,0,0,0,0,0,0,0,0,0,0,0,0,0,0,0,0,0,0,0,0,0,0,0,0,0,0,0,0,0,0,0,0,0,0,0,0,0,0,0,0,0,0,0,0,0,0,0,0,0,234,0,0,0,0,0,0,0,0,0,315,316,315,316,315,316,309,310,315,316,315,316,315,316,315,316,309,310,315,316,315,316,309,310,315,316,309,310,315,316,315,316,309,310,315,316,309,310,309,310,0,0,0,0,309,310,315,316,309,310,309,310,315,316,234,0,0,0,315,316,309,310,315,316,0,0,0,0,0,0,0,0,0,0,0,0,0,0,0,0,0,0,0,0,0,0,0,0,0,0,0,0,0,0,0,0,0,0,0,0,0,0,0,0,0,309,310,0,0,0,173,0,0,0,0,0,0,0,0,45,46,47,0,0,0,0,0,0,315,316,0,0,0,0,0,0,0,0,0,0,0,0,0,0,0,0,0,0,0,0,0,0,0,0,0,0,0,309,310,0,0,0,0,0,0,0,0,0,0,0,0,0,0,0,0,0,0,0,0,0,0,0,0,0,0,0,0,0,0,0,309,310,0,0,0,0,309,310,0,0,0,0,0,0,0,0,0,0,0,309,310,0,0,0,0,0,0,0,0,0,0,0,0,0,0,0,61,63,63,64,0,0,0,0,0,0,0,0,0,0,0,0,0,170,0,0,0,0,0,0,0,0,0,0,0,0,309,310,0,0,0,0,0,0,0,0,0,0,0,0,0,0,0,0,0,0,0,0,0,0,0,0,311,312,313,314,0,0,0,0,0,0,0,0,0,0,0,0,311,312,313,314,0,311,312,313,314,0,0,0,0,0,0,0,0,0,0,173,315,316,0,169,0,0,0,0,0,0,0,0,0,0,0,0,0,0,0,0,0,0,0,0,0,0,0,0,0,309,310,0,0,0,0,0,0,0,0,0,0,0,0,0,0,0,0,0,0,173,0,0,0,0,0,0,0,0,0,0,0,0,0,0,0,0,0,0,45,46,47,1047,1048,99,61,62,63,64,61,59,63,64,100,1049,124,124,0,0,0,0,0,0,0,0,0,0,57,59,59,60,69,70,71,72,65,59,67,68,0,0,0,0,0,0,0,0,0,0,0,0,0,0,0,0,0,0,173,0,315,316,0,0,0,0,0,1075,1076,0,0,0,0,0,0,0,0,0,0,1077,0,0,0,0,0,0,0,0,0,0,0,0,0,0,0,0,0,0,0,0,0,0,0,0,0,0,0,0,0,315,316,0,0,0,0,0,0,315,316,0,0,0,0,0,0,0,0,0,0,0,0,0,123,0,0,0,0,0,0,0,0,0,0,0,0,0,0,0,0,0,0,0,0,0,0,0,0,0,0,117,0,0,0,117,0,0,0,0,0,0,0,0,0,0,0,315,316,317,318,319,320,0,0,0,0,0,0,234,315,316,0,0,0,0,0,0,0,0,0,0,0,0,0,0,0,0,0,0,0,0,0,0,0,0,0,0,0,0,0,0,0,179,0,145,0,0,0,145,0,0,179,0,0,0,0,0,173,315,316,0,0,0,0,0,0,234,0,0,0,315,316,0,0,0,0,0,0,0,0,0,0,0,0,0,0,0,0,0,0,0,0,0,0,0,0,0,0,0,0,0,0,0,0,0,0,0,0,0,0,0,0,0,0,0,0,0,0,0,0,0,0,173,173,0,0,0,0,0,0,0,0,0,0,0,0,0,315,316,169,0,0,0,0,0,0,0,0,0,0,0,0,0,0,0,0,0,0,0,0,0,0,0,0,0,0,197,0,0,0,0,0,0,0,0,0,0,0,0,0,0,0,0,0,0,0,0,0,0,0,0,0,309,310,315,316,0,0,315,316,0,0,0,169,0,0,0,0,169,0,0,0,0,169,0,0,0,0,169,0,0,0,0,0,0,0,0,0,0,0,0,0,0,0,0,0,0,0,0,0,0,0,0,0,0,0,0,0,0,0,0,0,155,156,0,0,125,125,0,230,231,0,0,0,0,309,310,169,57,58,59,60,169,65,66,67,68,169,69,70,71,72,169,61,62,63,64,0,0,0,0,0,0,0,0,0,0,0,0,0,0,92,93,0,92,93,0,0,0,0,0,0,0,124,0,0,0,0,0,0,0,124,124,258,259,0,0,0,0,0,0,0,0,0,0,0,0,0,0,0,0,0,0,0,0,0,0,0,0,0,0,0,0,0,0,0,0,0,0,0,0,0,0,0,0,0,0,0,0,0,0,0,0,0,0,0,0,171,0,0,0,0,181,182,0,0,0,171,171,0,0,0,0,315,316,0,0,0,0,0,0,0,0,0,0,0,0,0,0,0,0,0,0,0,0,0,0,0,0,0,0,0,0,0,0,0,0,179,0,0,0,0,0,0,179,0,0,0,0,0,0,0,57,58,59,60,0,0,0,0,0,0,0,0,0,0,0,0,0,0,0,0,0,0,0,0,0,0,0,0,0,0,0,0,0,0,0,0,0,0,0,0,0,0,0,0,0,0,0,0,0,0,0,0,0,0,0,0,0,0,0,0,0,0,0,0,0,0,0,0,0,0,0,0,0,0,0,0,0,0,0,309,310,0,2147483698,51,51,50,0,2147483698,51,51,50,0,2147483698,51,51,50,0,2147483698,51,51,50,0,0,0,0,0,0,0,0,0,0,0,0,0,0,0,0,0,0,0,0,0,0,0,0,0,0,0,0,0,0,0,0,0,0,0,0,0,0,0,0,0,0,0,0,169,0,0,0,0,0,0,0,0,0,0,0,0,0,0,0,0,0,0,0,0,0,0,0,0,0,0,0,0,0,0,0,0,0,0,111,112,0,0,0,0,0,0,0,0,0,0,0,0,0,0,0,0,0,0,0,0,0,0,0,0,0,309,310,169,0,0,0,0,169,0,0,0,0,169,0,0,0,0,169,0,0,0,0,0,0,0,0,0,0,0,0,0,0,0,0,0,0,0,0,0,0,0,0,0,0,0,0,0,0,0,0,0,0,0,0,0,0,0,0,0,0,0,0,0,0,0,0,169,61,62,63,64,169,69,70,71,72,169,57,58,59,60,169,65,66,67,68,0,0,0,0,0,0,0,0,0,0,0,0,0,0,0,0,0,0,0,0,0,0,0,0,0,0,0,0,315,316,0,0,0,0,0,0,0,309,310,0,0,0,309,310,0,0,0,0,0,0,0,0,0,0,0,0,0,0,0,0,0,0,0,0,0,0,0,0,0,0,0,0,0,0,0,0,179,0,0,0,0,0,0,179,0,0,0,0,0,309,310,0,0,0,0,0,0,0,0,0,0,0,0,0,0,0,0,0,0,0,0,0,0,0,0,0,0,0,0,0,0,0,0,0,0,0,0,0,0,0,0,0,0,0,0,0,0,0,0,0,0,0,92,93,0,92,93,0,0,0,0,0,0,0,0,0,0,0,0,0,0,0,0,0,0,0,0,0,0,0,309,310,0,0,0,0,0,0,0,0,0,0,0,0,0,0,0,0,0,0,0,0,0,0,0,0,0,0,0,0,0,0,0,0,0,0,0,0,0,0,0,0,0,0,0,0,0,0,169,169,169,169,169,61,62,63,64,169,0,0,0,0,0,0,0,0,0,0,0,0,0,0,0,0,0,0,0,0,0,0,0,0,0,0,0,0,0,0,0,0,0,0,0,0,0,0,171,0,0,0,0,0,0,0,0,0,0,0,0,0,0,0,169,0,0,0,0,0,0,0,0,0,0,0,0,0,0,0,309,310,0,0,0,0,0,0,0,0,0,124,0,0,171,0,0,0,202,0,172,0,0,0,0,0,0,0,0,0,0,0,0,0,0,0,0,0,0,0,0,0,0,0,0,0,0,0,169,0,0,0,0,0,0,0,0,0,0,0,0,0,55,56,0,0,315,316,0,121,122,0,0,0,0,0,232,233,0,0,0,0,0,121,122,0,0,198,0,0,0,0,0,0,0,0,0,0,0,0,0,0,0,239,183,184,185,186,0,0,0,0,169,0,55,56,0,0,0,0,0,0,0,0,0,0,0,0,315,316,0,0,0,149,150,0,177,124,143,0,260,261,229,212,213,241,0,149,150,171,0,0,0,0,0,0,0,0,0,0,0,0,0,0,0,0,0,0,0,0,0,0,240,0,0,0,169,0,0,0,0,0,0,0,0,0,0,0,0,0,0,0,0,0,309,310,0,0,0,0,0,0,0,0,0,0,0,0,0,0,0,0,0,0,0,0,0,0,0,0,0,0,0,0,0,179,0,0,0,0,0,0,0,0,0,0,0,0,0,0,169,0,0,0,0,0,0,0,0,0,0,0,0,0,0,0,315,316,0,0,0,0,0,0,0,0,0,0,0,0,0,0,0,0,0,0,0,0,0,0,0,0,0,0,0,0,0,0,0,0,0,0,0,0,0,0,0,0,0,179,0,0,0,0,169,0,0,264,265,0,0,0,0,0,0,0,0,0,0,0,0,0,315,316,0,230,231,0,0,0,0,0,0,0,0,0,169,121,122,0,124,152,0,0,0,0,0,0,0,0,0,0,0,92,93,0,0,0,0,0,0,0,0,92,93,0,0,0,169,123,0,0,0,0,0,0,123,169,0,268,269,270,0,0,309,310,0,0,0,258,259,0,177,170,171,0,228,229,126,143,0,149,150,0,0,0,293,294,0,0,0,0,0,0,0,0,0,0,0,0,0,0,0,0,0,0,0,0,0,0,0,0,2147483698,51,51,51,50,0,0,0,2147483698,50,295,296,297,298,0,0,0,0,315,316,0,0,0,171,0,0,124,0,172,228,0,0,143,0,0,170,0,0,321,322,0,0,0,0,0,0,0,0,0,0,123,0,0,0,0,0,0,0,0,0,169,0,0,0,0,0,0,0,0,0,0,0,0,0,323,324,325,326,0,0,315,316,0,0,0,0,0,0,0,0,0,0,277,278,0,0,0,0,0,0,0,0,0,0,0,0,0,0,0,309,310,0,0,0,0,0,0,0,0,0,0,0,0,0,0,0,0,0,0,0,0,0,0,113,114,115,0,0,0,0,0,0,0,0,0,0,315,316,0,0,0,0,0,0,0,0,305,306,0,0,0,0,0,0,0,0,0,0,0,0,0,0,0,0,0,0,0,0,179,0,0,0,0,0,179,0,0,0,0,0,0,0,0,0,0,0,0,0,0,0,0,0,0,0,0,0,0,0,309,310,0,0,0,0,0,0,0,0,0,0,0,0,0,0,0,0,0,0,0,0,0,0,0,0,0,0,0,0,0,0,0,0,0,0,0,0,0,0,0,0,0,0,0,0,0,0,0,0,0,0,0,0,0,0,0,0,0,0,0,0,0,0,0,0,315,316,172,0,0,0,0,0,0,0,0,0,0,0,309,310,0,0,0,0,0,0,0,0,0,0,0,0,0,309,310,0,0,0,0,0,0,0,0,0,0,0,0,0,0,0,0,0,0,0,0,0,0,0,0,0,0,0,0,0,0,0,315,316,0,0,172,0,0,0,0,0,0,0,0,0,0,0,0,0,0,311,312,313,314,0,0,0,0,0,0,0,0,0,0,0,0,117,0,0,0,117,0,0,0,0,0,0,0,0,0,0,0,0,0,0,0,0,0,0,309,310,0,309,310,0,0,0,309,310,0,0,0,0,0,0,0,0,0,0,0,0,0,0,0,0,0,0,0,0,0,0,0,0,0,0,2147483698,51,51,51,50,145,113,114,115,145,2147483698,51,51,51,50,0,0,0,0,0,0,0,0,0,0,0,0,0,0,0,0,0,0,0,315,316,0,0,0,0,0,0,0,0,0,0,0,0,0,0,0,0,0,0,0,0,0,0,0,0,0,0,0,0,0,0,0,0,0,0,0,0,0,0,0,0,0,0,0,0,0,0,0,0,0,0,0,0,0,0,0,0,0,0,0,0,0,0,0,0,309,310,315,316,315,316,315,316,315,316,315,316,309,310,309,310,309,310,309,310,315,316,315,316,315,316,315,316,309,310,309,310,0,0,0,0,0,0,0,0,309,310,309,310,315,316,309,310,309,310,309,310,315,316,315,316,315,316,315,316,309,310,315,316]},{"id":6,"name":"collision","type":"tilelayer","x":0,"y":0,"width":64,"height":42,"opacity":0.5,"visible":false,"data":[0,0,0,0,0,0,0,0,0,0,0,0,0,0,0,0,0,0,0,0,0,0,0,0,0,0,0,0,0,0,0,0,0,0,0,0,0,0,0,0,0,0,0,0,0,0,0,0,0,0,0,0,0,0,1125,0,0,0,0,0,0,0,0,0,1125,1125,1125,1125,1125,1125,1125,1125,1125,1125,1125,1125,1125,1125,1125,1125,1125,1125,1125,1125,1125,1125,1125,1125,1125,1125,1125,1125,1125,1125,1125,1125,1125,1125,1125,1125,1125,1125,1125,1125,0,0,0,0,1125,1125,1125,1125,1125,1125,1125,1125,1125,1125,1125,1125,1125,1125,1125,1125,1125,1125,1125,1125,0,0,0,0,0,0,0,0,0,0,0,0,0,0,0,0,0,0,0,0,0,0,0,0,0,0,0,0,0,0,0,0,0,0,1125,1125,1125,1125,0,0,0,1125,1125,0,0,0,1125,0,0,0,0,0,0,0,0,1125,1125,1125,0,0,0,0,0,0,1125,1125,0,0,0,0,0,0,0,0,0,0,0,0,0,0,0,0,0,0,0,0,0,0,0,0,0,0,0,1125,1125,0,0,0,1125,1125,1125,1125,0,0,0,0,0,0,0,0,0,0,0,0,0,0,0,0,0,0,0,0,0,0,0,0,1125,1125,0,0,0,0,1125,1125,0,0,0,0,0,0,0,0,0,0,0,1125,1125,0,0,0,0,1125,1125,1125,0,0,0,0,0,0,0,0,1125,1125,1125,1125,0,0,0,0,0,0,0,0,0,0,0,0,0,1125,0,0,0,0,0,0,0,0,0,0,0,0,1125,1125,0,0,0,0,0,0,1125,1125,1125,1125,1125,1125,1125,1125,0,0,0,0,0,0,0,1125,1125,1125,1125,1125,1125,1125,1125,1125,1125,1125,1125,1125,1125,1125,1125,1125,1125,1125,1125,1125,1125,1125,0,1125,1125,1125,1125,0,0,0,0,0,0,0,0,0,0,1125,1125,1125,0,1125,1125,1125,1125,0,0,0,1125,1125,1125,1125,1125,1125,1125,1125,0,0,0,0,0,0,0,1125,1125,1125,0,1125,1125,0,1125,1125,1125,1125,1125,1125,1125,1125,1125,1125,1125,1125,0,0,0,0,0,1125,0,0,0,0,0,0,0,0,0,0,0,0,0,0,0,0,0,0,1125,1125,1125,1125,1125,1125,1125,1125,1125,1125,1125,1125,1125,1125,1125,1125,1125,1125,0,0,0,1125,1125,1125,0,0,0,0,1125,1125,1125,1125,1125,1125,1125,1125,1125,1125,1125,1125,0,0,0,0,0,0,0,0,0,0,0,0,0,0,0,0,0,0,1125,0,1125,1125,0,0,0,0,0,1125,1125,0,0,0,0,0,0,0,0,0,0,1125,0,0,0,0,0,1125,1125,1125,0,0,0,0,0,0,0,1125,0,0,0,1125,0,0,0,0,0,0,0,0,0,1125,1125,0,0,0,0,0,0,1125,1125,0,0,0,0,0,0,0,0,0,0,0,0,0,1125,0,0,0,0,0,0,0,0,0,0,0,0,0,0,0,0,0,0,0,0,0,0,0,0,1125,0,1125,0,0,0,1125,0,0,1125,0,0,0,0,0,0,0,0,1125,1125,1125,1125,1125,1125,0,0,0,0,0,0,1125,1125,1125,0,0,0,0,0,0,0,0,0,0,0,0,0,0,0,0,0,0,0,0,0,0,0,1125,1125,1125,0,0,0,0,0,1125,0,1125,0,0,0,1125,0,0,1125,0,0,0,0,0,1125,1125,1125,0,0,0,0,0,0,1125,0,0,0,1125,1125,0,0,0,0,0,0,0,0,0,0,0,0,0,0,0,0,0,0,0,0,0,0,0,0,0,0,1125,1125,1125,0,0,0,0,0,0,0,0,0,0,0,0,0,0,0,0,0,0,0,0,0,1125,1125,0,0,0,0,0,0,0,0,0,0,0,0,0,1125,1125,1125,1125,1125,1125,1125,0,1125,1125,1125,1125,0,1125,1125,1125,1125,0,1125,1125,1125,1125,0,0,0,1125,1125,1125,0,1125,0,0,0,0,0,0,0,0,0,0,0,0,0,0,0,0,0,0,0,0,0,0,0,0,0,1125,1125,1125,1125,0,0,1125,1125,0,0,0,1125,1125,1125,1125,1125,1125,1125,1125,1125,1125,1125,1125,1125,1125,1125,1125,1125,1125,1125,1125,0,0,0,1125,1125,1125,0,0,0,0,0,0,0,0,0,0,0,0,0,0,0,0,0,0,0,0,0,0,0,1125,1125,0,0,1125,1125,0,1125,1125,0,0,0,0,1125,1125,1125,1125,1125,1125,1125,1125,1125,1125,1125,1125,1125,1125,1125,1125,1125,1125,1125,1125,1125,1125,0,0,0,1125,1125,1125,0,0,0,0,0,0,0,0,1125,1125,0,1125,1125,0,0,0,0,0,0,0,1125,1125,1125,1125,1125,0,0,0,1125,1125,1125,1125,0,0,0,0,0,0,0,0,0,0,0,0,0,0,0,0,0,0,0,0,0,0,0,0,0,0,0,0,0,1125,1125,1125,0,0,0,0,0,0,1125,0,0,0,0,0,0,1125,0,0,0,0,0,0,1125,1125,1125,1125,1125,1125,1125,0,0,0,1125,1125,0,0,0,0,1125,1125,0,0,0,0,0,0,0,0,0,0,0,0,0,0,0,0,0,0,0,0,0,0,0,1125,1125,1125,0,0,0,0,0,0,1125,0,0,0,0,0,0,1125,0,0,0,0,0,0,0,1125,1125,1125,1125,0,0,0,0,0,0,0,0,0,0,0,0,0,0,0,0,0,0,0,0,0,0,0,0,0,0,0,0,0,0,0,0,0,0,0,0,1125,1125,1125,0,0,0,0,0,0,0,0,0,0,0,0,0,0,0,0,0,0,0,0,0,0,0,0,0,0,0,0,0,0,0,0,0,0,0,0,1125,1125,0,1125,1125,1125,1125,0,1125,1125,1125,1125,0,1125,1125,1125,1125,0,1125,1125,1125,1125,0,0,0,1125,1125,1125,0,0,0,0,0,0,0,0,0,1125,1125,0,0,0,0,0,0,0,0,0,0,0,0,0,0,0,0,0,0,0,0,0,0,0,0,0,0,0,1125,1125,1125,1125,1125,0,1125,1125,1125,1125,0,1125,1125,1125,1125,0,1125,1125,1125,1125,0,0,0,1125,1125,1125,0,0,0,0,0,0,0,0,0,1125,1125,0,0,0,0,0,0,0,0,0,0,0,0,0,0,0,0,0,0,0,0,0,0,0,0,0,1125,1125,1125,1125,1125,1125,1125,1125,1125,1125,1125,1125,1125,1125,1125,1125,1125,1125,1125,1125,1125,1125,0,0,0,1125,1125,1125,0,0,0,0,0,0,0,0,0,0,0,0,0,0,0,0,0,0,0,0,0,0,0,0,0,0,0,0,0,0,0,0,0,0,0,0,0,0,1125,1125,1125,1125,1125,1125,1125,1125,1125,1125,1125,1125,1125,1125,1125,1125,1125,1125,1125,1125,0,0,0,1125,1125,1125,0,0,0,0,0,0,1125,0,0,0,0,0,0,1125,0,0,0,0,0,0,0,0,1125,1125,0,0,0,0,0,0,0,1125,1125,0,0,0,1125,1125,0,0,0,0,0,0,0,0,0,0,0,0,0,0,0,0,0,0,0,0,0,0,0,1125,1125,1125,0,0,0,0,0,0,1125,0,0,0,0,0,0,1125,0,0,0,0,0,1125,1125,0,0,0,0,1125,1125,1125,1125,0,0,0,0,0,0,0,0,0,0,0,0,0,0,0,0,0,0,0,0,0,0,0,0,0,0,0,0,0,0,0,0,1125,1125,1125,0,0,0,0,0,0,0,0,1125,1125,0,1125,1125,0,0,0,0,0,0,0,0,0,0,0,0,1125,1125,1125,1125,0,0,0,0,0,0,0,1125,1125,0,0,0,0,0,0,0,0,0,0,0,0,0,0,0,0,0,0,0,0,0,0,0,1125,1125,1125,0,0,0,0,0,0,0,0,0,0,0,0,0,0,0,0,0,0,0,0,1125,1125,1125,1125,1125,1125,1125,1125,1125,1125,0,0,0,0,0,0,0,0,0,0,0,0,0,0,0,0,0,0,0,0,0,0,0,0,0,0,0,0,0,0,0,1125,1125,1125,0,0,0,0,1125,0,0,0,0,0,0,0,0,0,0,0,0,0,0,0,1125,0,0,0,0,0,0,0,0,0,0,0,0,0,1125,1125,1125,1125,0,0,0,0,0,0,0,0,0,1125,0,0,1125,0,0,0,1125,0,1125,0,0,0,0,1125,1125,1125,0,0,0,0,0,0,0,0,0,0,0,0,0,0,0,0,0,0,0,0,1125,0,1125,1125,0,0,0,0,0,0,1125,1125,1125,1125,1125,1125,0,0,1125,1125,0,1125,1125,0,0,0,0,0,1125,1125,0,0,0,0,0,1125,1125,0,0,1125,0,1125,1125,1125,0,0,0,0,0,0,0,0,0,0,0,1125,1125,1125,1125,1125,0,0,0,0,1125,0,1125,1125,0,0,0,0,0,0,1125,1125,1125,1125,0,0,1125,1125,0,0,0,1125,1125,0,1125,1125,1125,0,1125,1125,1125,1125,1125,1125,0,1125,1125,1125,0,0,0,1125,1125,1125,0,0,0,0,0,1125,0,0,0,0,0,0,0,0,0,0,1125,0,0,0,1125,0,0,0,0,0,0,0,0,0,1125,1125,1125,1125,0,0,0,0,1125,1125,0,0,0,0,0,0,0,0,0,0,0,0,0,0,0,0,0,0,0,0,0,0,0,0,0,0,0,0,0,1125,0,0,0,0,0,0,0,0,0,1125,0,0,0,0,1125,0,0,0,0,0,0,0,0,0,1125,1125,1125,1125,0,0,1125,1125,0,0,0,0,0,0,0,0,0,0,0,0,0,0,0,0,0,0,0,0,0,0,0,1125,1125,1125,0,0,0,0,0,0,0,0,0,0,0,0,0,0,0,1125,0,0,0,0,1125,0,0,1125,1125,0,0,0,0,0,0,0,0,0,0,0,0,0,1125,1125,0,1125,1125,0,0,0,0,0,0,0,0,0,1125,1125,1125,0,1125,1125,0,0,0,1125,1125,1125,0,0,0,0,0,1125,1125,0,0,0,0,0,0,0,0,1125,1125,0,0,0,1125,1125,0,0,0,0,0,0,1125,1125,0,1125,1125,1125,0,0,1125,1125,0,0,0,1125,1125,0,1125,1125,1125,0,1125,1125,1125,1125,0,1125,1125,0,0,0,1125,1125,0,1125,1125,1125,0,0,0,0,0,0,0,0,0,0,0,0,0,0,0,0,0,0,0,0,1125,1125,1125,1125,1125,0,0,0,1125,1125,1125,1125,1125,1125,0,0,0,0,1125,1125,0,0,0,1125,0,0,1125,0,1125,1125,0,0,1125,0,0,1125,0,0,1125,1125,0,1125,1125,1125,0,0,0,0,0,0,1125,0,0,0,0,0,0,0,0,0,1125,0,0,0,0,0,0,0,0,0,0,0,0,0,1125,1125,1125,1125,0,0,1125,1125,0,0,0,0,0,0,0,0,0,0,1125,1125,0,0,0,0,0,0,0,0,0,0,0,1125,1125,1125,0,1125,1125,0,0,0,1125,0,0,0,0,0,1125,0,0,0,0,0,0,0,0,0,0,0,0,1125,0,1125,0,0,0,0,0,0,0,0,0,0,1125,1125,0,0,1125,1125,1125,1125,1125,1125,1125,1125,0,0,0,0,0,0,0,0,0,0,0,1125,1125,1125,0,0,0,0,0,0,1125,0,0,0,0,0,1125,0,0,0,0,0,0,0,0,0,0,0,0,0,0,0,0,0,0,0,0,0,0,0,1125,1125,0,0,0,0,1125,1125,1125,1125,1125,1125,0,0,0,0,0,0,0,0,0,0,0,0,0,1125,1125,1125,0,0,0,0,0,0,0,0,0,0,0,0,0,0,0,0,0,0,0,0,0,0,0,0,0,0,0,0,0,0,0,0,0,0,0,0,0,0,1125,1125,1125,0,1125,1125,1125,1125,1125,1125,0,0,0,0,1125,1125,0,0,0,0,0,0,0,0,0,0,0,0,0,1125,1125,0,0,1125,0,0,0,1125,0,0,0,0,0,0,0,0,0,0,0,0,0,0,0,0,0,0,0,0,0,0,0,0,1125,1125,0,0,1125,0,0,0,0,0,0,0,0,0,0,0,0,0,0,1125,1125,1125,1125,0,0,0,0,0,0,0,0,0,0,0,0,1125,0,0,0,1125,0,0,0,0,0,0,0,0,0,0,0,0,0,0,0,0,0,0,1125,1125,0,1125,1125,0,0,0,1125,1125,0,0,0,0,0,0,0,0,0,0,0,0,0,0,0,0,0,0,0,0,0,0,0,0,0,0,1125,1125,1125,1125,1125,1125,1125,0,1125,1125,1125,1125,1125,1125,1125,0,0,0,0,0,0,0,0,0,0,0,0,0,0,0,0,0,0,0,1125,1125,0,0,0,0,0,0,0,0,0,0,0,0,0,0,0,0,0,0,0,0,0,0,0,0,0,0,0,0,0,0,0,0,0,0,0,0,0,0,0,0,0,0,0,0,0,0,0,0,0,0,0,0,0,0,0,0,0,0,0,0,0,0,0,0,1125,1125,1125,1125,1125,1125,1125,1125,1125,1125,1125,1125,1125,1125,1125,1125,1125,1125,1125,1125,1125,1125,1125,1125,1125,1125,1125,1125,1125,1125,1125,1125,0,0,0,0,0,0,0,0,1125,1125,1125,1125,1125,1125,1125,1125,1125,1125,1125,1125,1125,1125,1125,1125,1125,1125,1125,1125,1125,1125,1125,1125]},{"id":7,"name":"above","type":"tilelayer","x":0,"y":0,"width":64,"height":42,"opacity":1,"visible":true,"data":[287,288,287,288,287,288,281,282,287,288,287,288,287,288,287,288,281,282,287,288,287,288,281,282,287,288,281,282,287,288,287,288,281,282,287,288,281,282,281,282,0,0,0,0,281,282,287,288,281,282,281,282,287,288,0,0,0,0,287,288,281,282,287,288,0,0,0,0,0,0,0,0,0,0,0,0,0,0,0,0,0,0,0,0,0,0,0,0,0,0,0,0,0,0,0,0,0,0,0,0,0,0,0,0,0,281,282,0,0,0,0,0,0,0,0,0,0,0,0,17,18,19,0,0,0,0,0,0,287,288,0,0,0,0,0,0,0,0,0,0,0,0,0,0,0,0,0,0,0,0,0,0,0,0,0,0,0,281,282,0,0,0,5,6,7,8,0,0,0,0,0,0,0,0,0,0,0,0,0,0,0,0,0,0,0,0,0,0,0,0,281,282,0,0,0,0,281,282,0,0,0,0,0,0,0,0,0,0,0,281,282,0,0,0,0,0,0,0,0,256,257,0,0,0,0,0,33,34,35,36,0,0,0,0,0,256,257,0,0,0,256,257,0,0,0,0,0,0,0,0,0,0,0,0,0,0,281,282,0,0,0,0,0,0,0,0,0,0,0,0,0,0,0,0,0,0,0,0,0,0,0,0,283,284,285,286,0,0,0,0,0,0,0,0,0,0,0,0,283,284,285,286,0,283,284,285,286,0,0,0,0,0,0,0,0,0,0,0,287,288,0,0,0,0,0,0,0,0,5,6,7,8,5,6,7,8,0,0,0,0,0,0,0,0,0,0,0,281,282,0,1,2,3,4,13,14,15,16,9,10,11,12,0,0,0,0,0,0,0,0,0,0,0,0,0,0,0,0,0,0,0,0,0,0,0,0,17,18,19,0,0,0,33,34,35,36,33,34,35,36,0,0,0,0,0,0,0,0,0,0,0,0,0,0,29,30,31,32,41,42,43,44,37,38,39,40,0,0,0,0,0,0,0,0,0,0,0,0,0,0,0,0,0,0,0,0,287,288,0,0,0,0,0,0,0,0,0,0,0,0,0,0,0,0,0,0,0,0,0,0,0,0,0,0,0,0,0,0,0,0,0,0,0,0,0,0,0,0,0,0,0,0,0,0,0,287,288,0,0,0,0,263,0,287,288,0,0,0,0,0,0,0,0,0,0,0,0,0,0,0,0,0,0,0,0,0,0,0,0,0,0,0,0,0,0,0,0,0,0,0,0,0,0,0,0,89,0,0,0,89,0,0,0,0,0,0,0,0,0,0,0,287,288,289,290,291,292,0,0,0,0,0,0,0,287,288,0,0,0,0,0,0,0,0,0,0,0,0,0,0,0,0,0,0,0,0,0,0,0,0,0,0,0,0,0,0,0,151,0,0,0,0,0,0,0,0,151,0,0,0,0,0,0,287,288,0,0,0,0,0,0,0,0,0,0,287,288,0,0,0,0,0,0,0,0,0,0,0,0,0,0,0,0,0,0,0,0,0,0,0,0,0,0,0,0,0,0,0,0,0,0,0,0,0,0,0,0,0,0,0,0,0,0,0,0,0,0,0,0,0,0,0,0,0,0,0,0,0,0,0,0,0,287,288,0,0,0,0,0,0,0,0,0,0,0,0,0,0,0,0,0,0,0,0,0,0,0,0,0,0,0,0,0,0,0,0,0,0,0,0,0,0,0,0,0,0,0,0,0,0,0,0,0,0,0,0,0,281,282,287,288,0,0,287,288,0,0,0,0,1,2,3,4,0,9,10,11,12,0,13,14,15,16,0,5,6,7,8,0,0,0,0,0,0,0,0,0,0,0,0,0,0,0,0,0,0,0,0,0,0,0,0,0,0,0,0,0,0,0,0,0,0,0,0,0,0,0,0,0,0,281,282,0,29,30,31,32,0,37,38,39,40,0,41,42,43,44,0,33,34,35,36,0,0,0,0,0,0,0,0,0,0,0,0,0,0,0,0,0,0,0,0,0,0,0,0,0,0,0,0,0,0,0,0,0,0,0,0,0,0,0,0,0,0,0,0,0,0,0,0,0,0,0,0,0,0,0,0,0,0,0,0,0,0,0,0,0,0,0,0,0,0,0,0,0,0,0,0,0,0,0,0,0,0,0,0,0,0,0,0,0,0,0,1,2,3,4,0,0,0,0,0,0,0,0,0,0,0,287,288,0,0,0,0,0,0,0,0,0,0,0,0,0,0,0,0,0,0,0,0,0,0,0,0,0,0,0,0,0,0,0,0,151,0,0,0,0,0,0,151,0,0,0,0,0,0,0,29,30,31,32,0,0,0,0,0,0,0,0,0,0,0,0,0,0,0,0,0,0,0,0,0,0,0,0,0,0,0,0,0,0,0,0,0,0,0,0,0,0,0,0,0,0,0,0,0,0,0,0,0,0,0,0,0,0,0,0,0,0,0,0,0,0,0,0,0,0,0,0,0,0,0,0,0,0,0,281,282,0,0,0,0,0,0,0,0,0,0,0,0,0,0,0,0,0,0,0,0,0,0,0,0,0,0,0,0,0,0,0,0,0,0,0,0,0,0,0,0,0,0,0,0,0,0,0,0,0,0,0,0,0,0,0,0,0,0,0,0,0,0,0,0,0,0,0,0,0,0,0,0,0,0,0,0,0,0,0,0,0,0,0,0,0,0,0,0,0,0,0,0,0,0,0,0,0,0,0,83,84,0,0,0,0,0,0,0,0,0,0,0,0,0,0,0,0,0,0,0,0,0,0,0,0,0,281,282,0,5,6,7,8,0,13,14,15,16,0,1,2,3,4,0,9,10,11,12,0,0,0,0,0,0,0,0,0,0,0,0,0,0,0,0,0,0,0,0,0,0,0,0,0,0,0,0,0,0,0,0,0,0,0,0,0,0,0,0,0,0,0,0,0,33,34,35,36,0,41,42,43,44,0,29,30,31,32,0,37,38,39,40,0,0,0,0,0,0,0,0,0,0,0,0,0,0,0,0,0,0,0,0,0,0,0,0,0,0,0,0,287,288,0,0,0,0,0,0,0,281,282,0,0,0,281,282,0,0,0,0,0,0,0,0,0,0,0,0,0,0,0,0,0,0,0,0,0,0,0,0,0,0,0,0,0,0,0,0,151,0,0,0,0,0,0,151,0,0,0,0,0,281,282,0,0,0,0,0,0,0,0,0,0,0,0,0,0,0,0,0,0,0,0,0,0,0,0,0,0,0,0,0,0,0,0,0,0,0,0,0,0,0,0,0,0,0,0,0,0,0,0,0,0,0,0,0,0,0,0,0,0,0,0,0,0,0,0,0,0,0,0,5,6,7,8,0,0,0,0,0,0,0,281,282,0,0,0,0,0,0,0,0,0,0,0,0,0,0,0,0,0,0,0,0,0,0,0,0,0,0,0,0,0,0,0,0,0,0,0,0,0,0,0,0,0,0,0,0,0,0,0,0,0,0,0,33,34,35,36,0,0,0,0,0,0,0,0,0,0,0,0,0,0,0,0,0,0,0,0,0,0,0,0,0,0,0,0,0,0,0,0,0,0,0,0,0,0,0,0,0,0,0,0,0,0,0,0,0,0,0,0,0,0,0,0,0,0,0,0,0,0,0,0,0,0,0,0,0,0,0,281,282,0,0,0,0,0,0,0,0,0,0,0,0,0,0,0,0,0,0,0,0,0,0,0,0,0,0,0,0,0,0,0,0,0,0,0,0,0,0,0,0,0,0,0,0,0,0,0,0,0,0,0,0,0,0,0,0,0,0,0,0,27,28,0,0,287,288,0,0,0,0,0,0,0,0,0,0,0,0,0,0,0,0,0,0,0,0,0,0,0,0,0,0,0,0,0,0,0,0,0,0,0,0,0,0,0,0,0,0,0,0,0,0,27,28,0,0,0,0,0,0,0,0,0,0,0,0,287,288,0,0,0,0,0,0,88,88,88,0,0,0,0,88,88,88,0,0,0,0,0,0,0,0,0,0,0,0,0,0,0,0,0,0,0,0,0,0,0,0,0,0,0,0,0,0,0,0,0,0,0,0,0,0,0,0,0,0,0,0,0,0,0,0,281,282,0,0,0,0,0,0,0,0,0,0,0,0,0,0,0,0,0,0,0,0,0,0,0,0,0,0,0,0,0,151,0,0,0,0,0,0,0,0,0,0,0,0,0,0,0,0,0,0,0,0,0,0,0,0,0,0,0,0,0,0,287,288,0,0,0,0,0,0,0,0,0,0,0,0,0,0,0,0,0,0,0,0,0,0,0,0,0,0,0,0,0,0,0,0,0,0,0,0,0,0,0,0,0,151,0,0,0,0,0,0,0,236,237,0,0,0,0,0,0,0,0,0,0,0,0,0,287,288,0,0,0,0,0,0,0,0,0,0,0,0,0,0,0,0,0,0,0,0,0,0,0,0,0,0,0,0,0,0,0,0,0,0,0,0,0,0,0,0,0,0,0,0,0,0,0,0,0,0,0,0,0,0,0,0,0,0,0,0,281,282,0,0,0,0,0,0,88,88,88,0,88,88,88,88,0,0,0,0,0,0,0,0,0,0,0,0,0,0,0,0,0,0,0,0,0,0,0,0,0,0,0,0,0,0,0,0,0,0,0,0,0,0,0,0,0,0,0,0,0,0,0,0,0,0,287,288,0,0,0,0,0,0,0,0,0,0,0,0,0,0,0,0,0,0,0,0,0,0,0,0,0,0,0,0,0,0,0,0,0,0,0,0,0,0,0,0,0,0,0,0,0,0,0,0,0,0,0,0,0,0,0,0,0,0,0,0,287,288,0,0,0,0,0,0,0,0,0,0,0,0,0,0,0,0,0,0,0,0,0,0,0,0,0,0,0,281,282,0,0,0,0,0,0,0,0,0,0,0,0,0,0,0,0,0,0,0,0,0,0,85,86,87,0,0,0,0,0,0,0,0,0,0,287,288,0,0,0,0,0,0,0,0,0,0,0,0,0,0,0,0,0,0,0,0,0,0,0,0,0,0,0,0,0,0,151,0,0,0,0,0,151,0,0,0,0,0,0,0,0,0,0,0,0,0,0,0,0,0,0,0,0,0,0,0,281,282,0,0,0,0,0,0,0,0,0,0,0,0,0,0,0,0,0,0,0,0,0,0,0,0,0,0,0,0,0,0,0,0,0,0,0,0,0,0,0,0,0,0,0,0,0,0,0,0,0,0,0,0,0,0,0,0,0,0,0,0,0,0,0,0,287,288,0,0,0,0,0,0,0,0,0,0,0,0,281,282,0,0,256,257,0,0,0,0,0,0,0,0,0,281,282,0,0,0,0,0,0,0,0,0,0,0,0,0,0,0,0,0,0,0,0,0,0,0,0,0,0,0,0,0,0,0,287,288,0,0,0,0,0,0,0,0,0,0,0,0,0,0,0,0,0,283,284,285,286,0,0,0,0,0,0,0,0,0,0,0,0,89,0,0,0,89,0,0,0,0,0,0,0,0,0,0,0,0,0,0,0,0,0,0,281,282,0,281,282,0,0,0,281,282,0,0,0,0,0,0,0,0,0,0,0,0,0,0,0,0,0,0,0,0,0,0,0,0,0,0,0,0,0,0,0,0,85,86,87,0,0,0,0,0,0,0,0,0,0,0,0,0,0,0,0,0,0,0,0,0,0,0,0,0,287,288,0,0,0,0,0,0,0,0,0,0,0,0,0,0,0,0,0,0,0,0,0,0,0,0,0,0,0,0,0,0,0,0,0,0,0,0,0,0,0,0,0,0,0,0,0,0,0,0,0,0,0,0,0,0,0,0,0,0,0,0,0,0,0,0,281,282,287,288,287,288,287,288,287,288,287,288,281,282,281,282,281,282,281,282,287,288,287,288,287,288,287,288,281,282,281,282,0,0,0,0,0,0,0,0,281,282,281,282,287,288,281,282,281,282,281,282,287,288,287,288,287,288,287,288,281,282,287,288,0,0,0,0,0,0,0,0,0,0,0,0,0,0,0,0,0,0,0,0,0,0,0,0,0,0,0,0,0,0,0,0,0,0,0,0,0,0,0,0,0,0,0,0,0,0,0,0,0,0,0,0,0,0,0,0,0,0,0,0,0,0,0,0]},{"id":8,"name":"locations","type":"objectgroup","draworder":"topdown","opacity":1,"visible":true,"x":0,"y":0,"objects":[{"id":1,"name":"hall","type":"location","class":"location","x":496,"y":128,"width":160,"height":64,"rotation":0,"visible":true,"properties":[{"name":"label","type":"string","value":"议事厅"},{"name":"owner","type":"string","value":""}]},{"id":2,"name":"plaza","type":"location","class":"location","x":464,"y":192,"width":224,"height":208,"rotation":0,"visible":true,"properties":[{"name":"label","type":"string","value":"广场"},{"name":"owner","type":"string","value":""}]},{"id":3,"name":"archive","type":"location","class":"location","x":96,"y":128,"width":192,"height":32,"rotation":0,"visible":true,"properties":[{"name":"label","type":"string","value":"档案馆"},{"name":"owner","type":"string","value":"iris"}]},{"id":4,"name":"workshop","type":"location","class":"location","x":736,"y":272,"width":208,"height":32,"rotation":0,"visible":true,"properties":[{"name":"label","type":"string","value":"工坊"},{"name":"owner","type":"string","value":"tao"}]},{"id":5,"name":"workshop","type":"location","class":"location","x":816,"y":224,"width":128,"height":48,"rotation":0,"visible":true,"properties":[{"name":"label","type":"string","value":"工坊"},{"name":"owner","type":"string","value":"tao"}]},{"id":6,"name":"market","type":"location","class":"location","x":64,"y":464,"width":256,"height":32,"rotation":0,"visible":true,"properties":[{"name":"label","type":"string","value":"市集"},{"name":"owner","type":"string","value":"sol"}]},{"id":7,"name":"board","type":"location","class":"location","x":576,"y":464,"width":112,"height":64,"rotation":0,"visible":true,"properties":[{"name":"label","type":"string","value":"公告栏"},{"name":"owner","type":"string","value":""}]},{"id":8,"name":"mediation","type":"location","class":"location","x":752,"y":400,"width":128,"height":112,"rotation":0,"visible":true,"properties":[{"name":"label","type":"string","value":"调解所"},{"name":"owner","type":"string","value":"kade"}]},{"id":9,"name":"outskirts","type":"location","class":"location","x":832,"y":48,"width":128,"height":64,"rotation":0,"visible":true,"properties":[{"name":"label","type":"string","value":"城邦外围"},{"name":"owner","type":"string","value":"nova"}]},{"id":10,"name":"gate","type":"location","class":"location","x":528,"y":544,"width":80,"height":48,"rotation":0,"visible":true,"properties":[{"name":"label","type":"string","value":"城门"},{"name":"owner","type":"string","value":""}]},{"id":11,"name":"home","type":"location","class":"location","x":16,"y":176,"width":320,"height":224,"rotation":0,"visible":true,"properties":[{"name":"label","type":"string","value":"住宅区"},{"name":"owner","type":"string","value":""}]},{"id":12,"name":"door-hall","type":"door","class":"door","x":568,"y":136,"width":0,"height":0,"rotation":0,"visible":true,"properties":[{"name":"location","type":"string","value":"hall"}],"point":true},{"id":13,"name":"door-archive","type":"door","class":"door","x":152,"y":136,"width":0,"height":0,"rotation":0,"visible":true,"properties":[{"name":"location","type":"string","value":"archive"}],"point":true},{"id":14,"name":"door-workshop","type":"door","class":"door","x":776,"y":280,"width":0,"height":0,"rotation":0,"visible":true,"properties":[{"name":"location","type":"string","value":"workshop"}],"point":true},{"id":15,"name":"door-mediation","type":"door","class":"door","x":840,"y":408,"width":0,"height":0,"rotation":0,"visible":true,"properties":[{"name":"location","type":"string","value":"mediation"}],"point":true},{"id":16,"name":"door-outskirts","type":"door","class":"door","x":904,"y":56,"width":0,"height":0,"rotation":0,"visible":true,"properties":[{"name":"location","type":"string","value":"outskirts"}],"point":true},{"id":17,"name":"door-plaza","type":"door","class":"door","x":568,"y":392,"width":0,"height":0,"rotation":0,"visible":true,"properties":[{"name":"location","type":"string","value":"plaza"}],"point":true},{"id":18,"name":"door-market","type":"door","class":"door","x":184,"y":488,"width":0,"height":0,"rotation":0,"visible":true,"properties":[{"name":"location","type":"string","value":"market"}],"point":true},{"id":19,"name":"door-board","type":"door","class":"door","x":632,"y":488,"width":0,"height":0,"rotation":0,"visible":true,"properties":[{"name":"location","type":"string","value":"board"}],"point":true},{"id":20,"name":"door-gate","type":"door","class":"door","x":568,"y":584,"width":0,"height":0,"rotation":0,"visible":true,"properties":[{"name":"location","type":"string","value":"gate"}],"point":true},{"id":21,"name":"home-0","type":"home_door","class":"home_door","x":40,"y":248,"width":0,"height":0,"rotation":0,"visible":true,"properties":[{"name":"location","type":"string","value":"home"},{"name":"slot","type":"int","value":0}],"point":true},{"id":22,"name":"home-1","type":"home_door","class":"home_door","x":120,"y":248,"width":0,"height":0,"rotation":0,"visible":true,"properties":[{"name":"location","type":"string","value":"home"},{"name":"slot","type":"int","value":1}],"point":true},{"id":23,"name":"home-2","type":"home_door","class":"home_door","x":200,"y":248,"width":0,"height":0,"rotation":0,"visible":true,"properties":[{"name":"location","type":"string","value":"home"},{"name":"slot","type":"int","value":2}],"point":true},{"id":24,"name":"home-3","type":"home_door","class":"home_door","x":280,"y":248,"width":0,"height":0,"rotation":0,"visible":true,"properties":[{"name":"location","type":"string","value":"home"},{"name":"slot","type":"int","value":3}],"point":true},{"id":25,"name":"home-4","type":"home_door","class":"home_door","x":40,"y":360,"width":0,"height":0,"rotation":0,"visible":true,"properties":[{"name":"location","type":"string","value":"home"},{"name":"slot","type":"int","value":4}],"point":true},{"id":26,"name":"home-5","type":"home_door","class":"home_door","x":120,"y":360,"width":0,"height":0,"rotation":0,"visible":true,"properties":[{"name":"location","type":"string","value":"home"},{"name":"slot","type":"int","value":5}],"point":true},{"id":27,"name":"home-6","type":"home_door","class":"home_door","x":200,"y":360,"width":0,"height":0,"rotation":0,"visible":true,"properties":[{"name":"location","type":"string","value":"home"},{"name":"slot","type":"int","value":6}],"point":true},{"id":28,"name":"home-7","type":"home_door","class":"home_door","x":280,"y":360,"width":0,"height":0,"rotation":0,"visible":true,"properties":[{"name":"location","type":"string","value":"home"},{"name":"slot","type":"int","value":7}],"point":true},{"id":29,"name":"home-8","type":"home_door","class":"home_door","x":56,"y":136,"width":0,"height":0,"rotation":0,"visible":true,"properties":[{"name":"location","type":"string","value":"home"},{"name":"slot","type":"int","value":8}],"point":true},{"id":30,"name":"hall","type":"interactable","class":"interactable","x":544,"y":32,"width":64,"height":48,"rotation":0,"visible":true,"properties":[{"name":"location","type":"string","value":"hall"}]},{"id":31,"name":"hall","type":"interactable","class":"interactable","x":544,"y":80,"width":64,"height":48,"rotation":0,"visible":true,"properties":[{"name":"location","type":"string","value":"hall"}]},{"id":32,"name":"archive","type":"interactable","class":"interactable","x":128,"y":80,"width":64,"height":48,"rotation":0,"visible":true,"properties":[{"name":"location","type":"string","value":"archive"}]},{"id":33,"name":"workshop","type":"interactable","class":"interactable","x":752,"y":224,"width":64,"height":48,"rotation":0,"visible":true,"properties":[{"name":"location","type":"string","value":"workshop"}]},{"id":34,"name":"mediation","type":"interactable","class":"interactable","x":816,"y":352,"width":64,"height":48,"rotation":0,"visible":true,"properties":[{"name":"location","type":"string","value":"mediation"}]},{"id":35,"name":"home-0","type":"interactable","class":"interactable","x":16,"y":192,"width":64,"height":48,"rotation":0,"visible":true,"properties":[{"name":"location","type":"string","value":"home"},{"name":"slot","type":"int","value":0}]},{"id":36,"name":"home-1","type":"interactable","class":"interactable","x":96,"y":192,"width":64,"height":48,"rotation":0,"visible":true,"properties":[{"name":"location","type":"string","value":"home"},{"name":"slot","type":"int","value":1}]},{"id":37,"name":"home-2","type":"interactable","class":"interactable","x":176,"y":192,"width":64,"height":48,"rotation":0,"visible":true,"properties":[{"name":"location","type":"string","value":"home"},{"name":"slot","type":"int","value":2}]},{"id":38,"name":"home-3","type":"interactable","class":"interactable","x":256,"y":192,"width":64,"height":48,"rotation":0,"visible":true,"properties":[{"name":"location","type":"string","value":"home"},{"name":"slot","type":"int","value":3}]},{"id":39,"name":"home-4","type":"interactable","class":"interactable","x":16,"y":304,"width":64,"height":48,"rotation":0,"visible":true,"properties":[{"name":"location","type":"string","value":"home"},{"name":"slot","type":"int","value":4}]},{"id":40,"name":"home-5","type":"interactable","class":"interactable","x":96,"y":304,"width":64,"height":48,"rotation":0,"visible":true,"properties":[{"name":"location","type":"string","value":"home"},{"name":"slot","type":"int","value":5}]},{"id":41,"name":"home-6","type":"interactable","class":"interactable","x":176,"y":304,"width":64,"height":48,"rotation":0,"visible":true,"properties":[{"name":"location","type":"string","value":"home"},{"name":"slot","type":"int","value":6}]},{"id":42,"name":"home-7","type":"interactable","class":"interactable","x":256,"y":304,"width":64,"height":48,"rotation":0,"visible":true,"properties":[{"name":"location","type":"string","value":"home"},{"name":"slot","type":"int","value":7}]},{"id":43,"name":"home-8","type":"interactable","class":"interactable","x":32,"y":96,"width":48,"height":32,"rotation":0,"visible":true,"properties":[{"name":"location","type":"string","value":"home"},{"name":"slot","type":"int","value":8}]},{"id":44,"name":"outskirts","type":"interactable","class":"interactable","x":880,"y":16,"width":48,"height":32,"rotation":0,"visible":true,"properties":[{"name":"location","type":"string","value":"outskirts"}]},{"id":45,"name":"hall","type":"interactable","class":"interactable","x":480,"y":32,"width":192,"height":96,"rotation":0,"visible":true,"properties":[{"name":"location","type":"string","value":"hall"}]},{"id":46,"name":"plaza","type":"interactable","class":"interactable","x":528,"y":256,"width":96,"height":96,"rotation":0,"visible":true,"properties":[{"name":"location","type":"string","value":"plaza"}]},{"id":47,"name":"archive","type":"interactable","class":"interactable","x":192,"y":80,"width":64,"height":48,"rotation":0,"visible":true,"properties":[{"name":"location","type":"string","value":"archive"}]},{"id":48,"name":"market","type":"interactable","class":"interactable","x":48,"y":432,"width":272,"height":32,"rotation":0,"visible":true,"properties":[{"name":"location","type":"string","value":"market"}]},{"id":49,"name":"market","type":"interactable","class":"interactable","x":48,"y":496,"width":272,"height":48,"rotation":0,"visible":true,"properties":[{"name":"location","type":"string","value":"market"}]},{"id":50,"name":"board","type":"interactable","class":"interactable","x":608,"y":432,"width":64,"height":16,"rotation":0,"visible":true,"properties":[{"name":"location","type":"string","value":"board"}]},{"id":51,"name":"gate","type":"interactable","class":"interactable","x":544,"y":608,"width":48,"height":32,"rotation":0,"visible":true,"properties":[{"name":"location","type":"string","value":"gate"}]}]}]}